; generated by PrusaSlicer 2.4.1+x64 on 2022-03-20 at 08:52:06 UTC

; 

; external perimeters extrusion width = 0.60mm
; perimeters extrusion width = 0.50mm
; infill extrusion width = 0.50mm
; solid infill extrusion width = 0.50mm
; top infill extrusion width = 0.45mm
; first layer extrusion width = 0.42mm

M73 P0 R216
M73 Q0 S217
M201 X1000 Y1000 Z200 E5000 ; sets maximum accelerations, mm/sec^2
M203 X200 Y200 Z12 E120 ; sets maximum feedrates, mm / sec
M204 P1250 R1250 T1250 ; sets acceleration (P, T) and retract acceleration (R), mm/sec^2
M205 X8.00 Y8.00 Z0.40 E4.50 ; sets the jerk limits, mm/sec
M205 S0 T0 ; sets the minimum extruding and travel feed rate, mm/sec
M107
;TYPE:Custom
M862.3 P "MK3S" ; printer model check
M862.1 P0.4 ; nozzle diameter check
M115 U3.10.1 ; tell printer latest fw version
G90 ; use absolute coordinates
M83 ; extruder relative mode
M104 S215 ; set extruder temp
M140 S60 ; set bed temp
M190 S60 ; wait for bed temp
M109 S215 ; wait for extruder temp
G28 W ; home all without mesh bed level
G80 ; mesh bed leveling
G1 Z0.2 F720
G1 Y-3 F1000 ; go outside print area
G92 E0
G1 X60 E9 F1000 ; intro line
G1 X100 E12.5 F1000 ; intro line
G92 E0
M221 S95

; Don't change E values below. Excessive value can damage the printer.

M907 E538 ; set extruder motor current
G21 ; set units to millimeters
G90 ; use absolute coordinates
M83 ; use relative distances for extrusion
M900 K0.05 ; Filament gcode LA 1.5
M900 K30 ; Filament gcode LA 1.0
M107
;LAYER_CHANGE
;Z:0.2
;HEIGHT:0.2
;BEFORE_LAYER_CHANGE
G92 E0.0
;0.2


G1 E-.8 F2100
G1 Z.4 F720
;AFTER_LAYER_CHANGE
;0.2
G1 X100.587 Y87.082 F10800
G1 Z.2 F720
G1 E.8 F2100
M204 S800
;TYPE:Skirt/Brim
;WIDTH:0.42
G1 F1200
G1 X101.901 Y85.796 E.05764
G1 X103.498 Y84.582 E.06289
G1 X107.159 Y82.307 E.13514
G1 X109.504 Y81.143 E.08208
G1 X112.516 Y79.962 E.10146
G1 X121.176 Y77.797 E.27988
G1 X121.753 Y77.726 E.01821
G1 X128.247 Y77.726 E.20364
G1 X128.824 Y77.797 E.01821
G1 X137.484 Y79.962 E.27988
G1 X140.676 Y81.224 E.10765
G1 X143.038 Y82.417 E.08296
G1 X146.692 Y84.714 E.1353
G1 X148.33 Y86 E.06531
G1 X149.413 Y87.082 E.048
G1 X149.858 Y87.7 E.02388
G1 X151.481 Y90.945 E.11378
G1 X151.678 Y91.505 E.0186
G1 X153.085 Y97.996 E.20824
G1 X153.356 Y102.832 E.15187
G1 X153.354 Y107.284 E.13957
G1 X153.086 Y111.993 E.14788
G1 X151.679 Y118.493 E.20854
G1 X151.482 Y119.053 E.0186
G1 X149.859 Y122.299 E.1138
G1 X149.414 Y122.916 E.02386
G1 X148.099 Y124.204 E.0577
G1 X146.502 Y125.418 E.06289
G1 X142.841 Y127.693 E.13514
G1 X140.496 Y128.857 E.08208
G1 X137.484 Y130.038 E.10146
G1 X128.824 Y132.203 E.27988
G1 X128.247 Y132.274 E.01821
G1 X121.753 Y132.274 E.20364
G1 X121.176 Y132.203 E.01821
G1 X112.516 Y130.038 E.27988
G1 X109.324 Y128.776 E.10765
G1 X106.962 Y127.583 E.08296
G1 X103.308 Y125.286 E.1353
G1 X101.67 Y124 E.06531
G1 X100.587 Y122.918 E.048
G1 X100.142 Y122.3 E.02388
G1 X98.518 Y119.053 E.11384
G1 X98.321 Y118.493 E.01861
G1 X96.915 Y112.002 E.20825
G1 X96.644 Y107.168 E.15182
G1 X96.646 Y102.716 E.13956
G1 X96.914 Y98.002 E.14806
G1 X98.321 Y91.507 E.20837
G1 X98.518 Y90.947 E.0186
G1 X100.142 Y87.7 E.11384
G1 X100.552 Y87.131 E.022
M204 S1000
; printing object mic-holder.stl id:0 copy 0
;WIPE_START
G1 F8640
G1 X101.901 Y85.796 E-.43815
G1 X103.011 Y84.953 E-.32185
;WIPE_END
G1 E-.04 F2100
G1 Z.6 F720
G1 X102.915 Y89.229 F10800
G1 Z.2 F720
G1 E.8 F2100
M204 S800
;TYPE:Perimeter
G1 F1200
G1 X103.871 Y88.273 E.04239
G1 X105.199 Y87.252 E.05253
G1 X107.016 Y86.183 E.0661
G1 X108.617 Y85.115 E.06034
G1 X110.709 Y84.069 E.07333
G1 X113.336 Y83.019 E.08869
G1 X121.849 Y80.89 E.27516
G1 X128.151 Y80.89 E.19756
G1 X136.664 Y83.019 E.27516
G1 X139.291 Y84.069 E.08869
G1 X141.383 Y85.115 E.07333
G1 X142.984 Y86.183 E.06035
G1 X144.801 Y87.252 E.0661
G1 X146.129 Y88.273 E.05253
G1 X147.085 Y89.229 E.04239
G1 X148.607 Y92.274 E.10673
G1 X149.98 Y98.609 E.20324
G1 X150.192 Y102.855 E.13329
G1 X150.192 Y107.145 E.13453
G1 X149.98 Y111.391 E.13329
G1 X148.607 Y117.726 E.20324
G1 X147.085 Y120.771 E.10673
G1 X146.129 Y121.727 E.04239
G1 X144.801 Y122.748 E.05253
G1 X142.984 Y123.817 E.0661
G1 X141.383 Y124.885 E.06035
G1 X139.291 Y125.931 E.07333
G1 X136.664 Y126.981 E.08869
G1 X128.151 Y129.11 E.27516
G1 X121.849 Y129.11 E.19756
G1 X113.336 Y126.981 E.27516
G1 X110.709 Y125.931 E.08869
G1 X108.617 Y124.885 E.07333
G1 X107.016 Y123.817 E.06035
G1 X105.199 Y122.748 E.0661
G1 X103.871 Y121.727 E.05253
G1 X102.915 Y120.771 E.04239
G1 X101.393 Y117.726 E.10673
G1 X100.02 Y111.391 E.20324
G1 X99.808 Y107.145 E.13329
G1 X99.808 Y102.855 E.13453
G1 X100.02 Y98.609 E.13329
G1 X101.393 Y92.274 E.20324
G1 X102.888 Y89.283 E.10485
M204 S1000
G1 X102.605 Y89.006 F10800
M204 S800
;TYPE:External perimeter
G1 F1200
G1 X103.622 Y87.989 E.04508
G1 X104.988 Y86.938 E.05403
G1 X106.816 Y85.863 E.0665
G1 X108.428 Y84.788 E.06075
G1 X110.555 Y83.725 E.07456
G1 X113.219 Y82.659 E.08998
G1 X121.803 Y80.513 E.27742
G1 X128.197 Y80.513 E.20048
G1 X136.781 Y82.659 E.27742
G1 X139.445 Y83.725 E.08998
G1 X141.572 Y84.788 E.07456
G1 X143.184 Y85.863 E.06075
G1 X145.012 Y86.938 E.0665
G1 X146.378 Y87.989 E.05403
G1 X147.395 Y89.006 E.04508
G1 X148.966 Y92.148 E.11013
G1 X150.355 Y98.559 E.2057
G1 X150.569 Y102.845 E.13456
G1 X150.569 Y107.155 E.13512
G1 X150.355 Y111.441 E.13456
G1 X148.966 Y117.852 E.2057
G1 X147.395 Y120.994 E.11013
G1 X146.378 Y122.011 E.04508
M73 Q0 S216
G1 X145.012 Y123.062 E.05403
G1 X143.184 Y124.137 E.0665
G1 X141.572 Y125.212 E.06075
G1 X139.445 Y126.275 E.07456
G1 X136.781 Y127.341 E.08998
G1 X128.197 Y129.487 E.27742
G1 X121.803 Y129.487 E.20048
G1 X113.219 Y127.341 E.27742
G1 X110.555 Y126.275 E.08998
G1 X108.428 Y125.212 E.07456
G1 X106.816 Y124.137 E.06075
G1 X104.988 Y123.062 E.0665
G1 X103.622 Y122.011 E.05403
G1 X102.605 Y120.994 E.04508
G1 X101.034 Y117.852 E.11013
G1 X99.645 Y111.441 E.2057
G1 X99.431 Y107.155 E.13456
G1 X99.431 Y102.845 E.13512
G1 X99.645 Y98.559 E.13456
G1 X101.034 Y92.148 E.2057
G1 X102.578 Y89.059 E.10825
M204 S1000
G1 X103.003 Y89.046 F10800
;WIPE_START
G1 F8640
G1 X103.622 Y87.989 E-.34515
G1 X104.988 Y86.938 E-.39792
G1 X105.051 Y86.901 E-.01693
;WIPE_END
G1 E-.04 F2100
G1 Z.6 F720
G1 X145.01 Y87.555 F10800
G1 Z.2 F720
G1 E.8 F2100
M204 S800
;TYPE:Solid infill
;WIDTH:0.421274
G1 F1200
G1 X146.854 Y89.399 E.08202
G1 X147.389 Y90.469 E.03764
G1 X144.069 Y87.149 E.1477
G1 X142.755 Y86.37 E.04807
G1 X147.924 Y91.539 E.22999
G1 X148.339 Y92.368 E.02918
G1 X148.372 Y92.522 E.00494
G1 X141.18 Y85.33 E.31999
G1 X140.11 Y84.795 E.03764
G1 X148.52 Y93.205 E.37419
G1 X148.668 Y93.888 E.02199
G1 X139.062 Y84.282 E.42738
G1 X138.17 Y83.925 E.03022
G1 X148.816 Y94.571 E.47364
G1 X148.964 Y95.254 E.02199
G1 X137.278 Y83.569 E.51991
G1 X136.577 Y83.288 E.02375
G1 X136.425 Y83.25 E.00495
G1 X149.112 Y95.937 E.56447
G1 X149.26 Y96.62 E.02199
G1 X135.711 Y83.072 E.6028
G1 X134.998 Y82.893 E.02314
G1 X149.408 Y97.303 E.64112
G1 X149.556 Y97.987 E.02199
G1 X134.284 Y82.715 E.67945
G1 X133.571 Y82.537 E.02314
G1 X149.7 Y98.665 E.71759
G1 X149.728 Y99.229 E.01774
G1 X132.858 Y82.358 E.75059
G1 X132.144 Y82.18 E.02314
G1 X149.756 Y99.792 E.78358
G1 X149.784 Y100.355 E.01774
G1 X131.431 Y82.002 E.81658
G1 X130.717 Y81.823 E.02314
G1 X149.812 Y100.918 E.84957
G1 X149.841 Y101.482 E.01774
G1 X130.004 Y81.645 E.88256
G1 X129.29 Y81.467 E.02314
M73 P0 R215
G1 X149.869 Y102.045 E.91556
G1 X149.897 Y102.608 E.01774
G1 X128.577 Y81.288 E.94855
G1 X128.116 Y81.173 E.01496
G1 X127.927 Y81.173 E.00595
G1 X149.91 Y103.156 E.97805
G1 X149.91 Y103.691 E.01683
G1 X127.392 Y81.173 E1.00186
G1 X126.856 Y81.173 E.01683
G1 X149.91 Y104.226 E1.02567
G1 X149.91 Y104.761 E.01683
G1 X126.321 Y81.173 E1.04947
G1 X125.786 Y81.173 E.01683
G1 X149.91 Y105.296 E1.07328
G1 X149.91 Y105.831 E.01683
G1 X125.251 Y81.173 E1.09709
G1 X124.716 Y81.173 E.01683
G1 X149.91 Y106.366 E1.12089
G1 X149.91 Y106.901 E.01683
G1 X124.181 Y81.173 E1.1447
G1 X123.646 Y81.173 E.01683
G1 X149.895 Y107.422 E1.16787
G1 X149.87 Y107.932 E.01605
G1 X123.111 Y81.173 E1.19054
G1 X122.576 Y81.173 E.01683
G1 X149.844 Y108.441 E1.21322
G1 X149.819 Y108.951 E.01605
G1 X122.041 Y81.173 E1.23589
G1 X121.884 Y81.173 E.00492
G1 X121.581 Y81.249 E.00982
G1 X149.793 Y109.461 E1.25519
G1 X149.768 Y109.97 E.01605
G1 X121.153 Y81.356 E1.27311
G1 X120.725 Y81.463 E.01388
G1 X149.742 Y110.48 E1.29102
G1 X149.717 Y110.989 E.01605
G1 X120.297 Y81.57 E1.30893
G1 X119.869 Y81.677 E.01388
G1 X149.672 Y111.479 E1.32595
G1 X149.576 Y111.919 E.01416
G1 X119.441 Y81.784 E1.34076
G1 X119.013 Y81.891 E.01388
G1 X149.481 Y112.359 E1.35557
G1 X149.386 Y112.799 E.01416
M73 Q0 S215
G1 X118.585 Y81.998 E1.37037
G1 X118.157 Y82.105 E.01388
G1 X149.29 Y113.238 E1.38518
G1 X149.195 Y113.678 E.01416
G1 X117.729 Y82.212 E1.39998
G1 X117.301 Y82.319 E.01388
G1 X149.1 Y114.118 E1.41479
G1 X149.005 Y114.558 E.01416
G1 X116.873 Y82.426 E1.42959
G1 X116.445 Y82.533 E.01388
G1 X148.909 Y114.997 E1.4444
G1 X148.814 Y115.437 E.01416
G1 X116.017 Y82.64 E1.45921
G1 X115.589 Y82.747 E.01388
G1 X148.719 Y115.877 E1.47401
G1 X148.623 Y116.317 E.01416
G1 X115.161 Y82.854 E1.48882
G1 X114.732 Y82.961 E.01388
M73 P0 R214
G1 X148.528 Y116.757 E1.50362
G1 X148.433 Y117.196 E.01416
G1 X114.304 Y83.068 E1.51843
G1 X113.876 Y83.175 E.01388
G1 X148.337 Y117.635 E1.5332
G1 X148.158 Y117.992 E.01255
G1 X113.448 Y83.282 E1.54431
G1 X113.063 Y83.432 E.013
G1 X147.98 Y118.349 E1.5535
G1 X147.802 Y118.705 E.01255
G1 X112.681 Y83.585 E1.56257
G1 X112.299 Y83.738 E.01295
G1 X147.623 Y119.062 E1.57163
G1 X147.445 Y119.419 E.01255
G1 X111.917 Y83.891 E1.5807
G1 X111.535 Y84.044 E.01295
M73 P1 R214
M73 Q1 S215
G1 X147.267 Y119.776 E1.58977
G1 X147.088 Y120.132 E.01255
G1 X111.152 Y84.196 E1.59884
G1 X110.774 Y84.353 E.01289
G1 X146.91 Y120.489 E1.60775
G1 X146.853 Y120.603 E.00402
G1 X146.671 Y120.785 E.00809
G1 X110.417 Y84.531 E1.61299
G1 X110.06 Y84.71 E.01255
G1 X146.403 Y121.053 E1.61695
G1 X146.136 Y121.32 E.0119
G1 X109.704 Y84.888 E1.62092
G1 X109.347 Y85.066 E.01255
G1 X145.859 Y121.578 E1.62446
G1 X145.556 Y121.811 E.012
G1 X108.99 Y85.245 E1.62688
G1 X108.646 Y85.436 E.01238
M73 Q1 S214
G1 X145.254 Y122.043 E1.62873
G1 X144.951 Y122.276 E.012
G1 X108.325 Y85.65 E1.62956
G1 X108.004 Y85.864 E.01214
G1 X144.649 Y122.509 E1.63039
G1 X144.313 Y122.708 E.01229
G1 X107.683 Y86.078 E1.62971
G1 X107.362 Y86.292 E.01214
G1 X143.976 Y122.906 E1.62901
G1 X143.639 Y123.104 E.0123
G1 X107.035 Y86.5 E1.62858
G1 X106.698 Y86.698 E.0123
G1 X143.302 Y123.302 E1.62858
G1 X142.965 Y123.5 E.0123
G1 X106.361 Y86.896 E1.62858
G1 X106.024 Y87.094 E.0123
M73 P1 R213
G1 X142.638 Y123.708 E1.62901
G1 X142.317 Y123.922 E.01214
G1 X105.687 Y87.292 E1.62971
G1 X105.351 Y87.491 E.01229
G1 X141.996 Y124.136 E1.63039
G1 X141.675 Y124.35 E.01214
G1 X105.049 Y87.724 E1.62956
G1 X104.746 Y87.957 E.012
G1 X141.354 Y124.564 E1.62873
G1 X141.01 Y124.755 E.01238
G1 X104.444 Y88.189 E1.62688
G1 X104.141 Y88.422 E.012
G1 X140.653 Y124.934 E1.62446
G1 X140.296 Y125.112 E.01255
G1 X103.864 Y88.68 E1.62092
G1 X103.597 Y88.947 E.0119
G1 X139.94 Y125.29 E1.61695
G1 X139.583 Y125.469 E.01255
G1 X103.329 Y89.215 E1.61299
G1 X103.147 Y89.397 E.00809
G1 X103.09 Y89.511 E.00402
G1 X139.226 Y125.647 E1.60775
G1 X138.848 Y125.804 E.01289
G1 X102.912 Y89.868 E1.59884
G1 X102.733 Y90.224 E.01255
G1 X138.465 Y125.956 E1.58977
G1 X138.083 Y126.109 E.01295
G1 X102.555 Y90.581 E1.5807
G1 X102.377 Y90.938 E.01255
G1 X137.701 Y126.262 E1.57163
G1 X137.319 Y126.415 E.01295
M73 Q1 S213
G1 X102.198 Y91.295 E1.56256
G1 X102.02 Y91.651 E.01255
G1 X136.937 Y126.568 E1.55349
G1 X136.552 Y126.718 E.013
G1 X101.842 Y92.008 E1.5443
G1 X101.663 Y92.365 E.01255
G1 X136.124 Y126.825 E1.53319
G1 X135.696 Y126.932 E.01388
G1 X101.567 Y92.804 E1.51843
G1 X101.472 Y93.243 E.01416
G1 X135.267 Y127.039 E1.50362
G1 X134.839 Y127.146 E.01388
G1 X101.377 Y93.683 E1.48881
G1 X101.281 Y94.123 E.01416
G1 X134.411 Y127.253 E1.47401
G1 X133.983 Y127.36 E.01388
M73 P1 R212
G1 X101.186 Y94.563 E1.4592
G1 X101.091 Y95.003 E.01416
G1 X133.555 Y127.467 E1.4444
G1 X133.127 Y127.574 E.01388
G1 X100.995 Y95.442 E1.42959
G1 X100.9 Y95.882 E.01416
G1 X132.699 Y127.681 E1.41479
G1 X132.271 Y127.788 E.01388
G1 X100.805 Y96.322 E1.39998
G1 X100.71 Y96.762 E.01416
G1 X131.843 Y127.895 E1.38518
G1 X131.415 Y128.002 E.01388
G1 X100.614 Y97.202 E1.37037
G1 X100.519 Y97.641 E.01416
G1 X130.987 Y128.109 E1.35556
G1 X130.559 Y128.216 E.01388
G1 X100.424 Y98.081 E1.34076
G1 X100.328 Y98.521 E.01416
G1 X130.131 Y128.323 E1.32595
G1 X129.703 Y128.43 E.01388
G1 X100.283 Y99.011 E1.30893
G1 X100.258 Y99.52 E.01605
G1 X129.275 Y128.537 E1.29101
G1 X128.847 Y128.644 E.01388
G1 X100.232 Y100.03 E1.2731
G1 X100.207 Y100.539 E.01605
G1 X128.418 Y128.751 E1.25519
G1 X128.116 Y128.827 E.00982
M73 P2 R212
M73 Q2 S213
G1 X127.959 Y128.827 E.00493
G1 X100.181 Y101.049 E1.23589
G1 X100.156 Y101.559 E.01605
G1 X127.424 Y128.827 E1.21321
G1 X126.889 Y128.827 E.01683
G1 X100.13 Y102.068 E1.19054
G1 X100.105 Y102.578 E.01605
G1 X126.354 Y128.827 E1.16787
G1 X125.819 Y128.827 E.01683
M73 Q2 S212
G1 X100.09 Y103.099 E1.14469
G1 X100.09 Y103.634 E.01683
G1 X125.284 Y128.827 E1.12089
G1 X124.749 Y128.827 E.01683
G1 X100.09 Y104.169 E1.09708
G1 X100.09 Y104.704 E.01683
G1 X124.214 Y128.827 E1.07328
G1 X123.679 Y128.827 E.01683
G1 X100.09 Y105.239 E1.04947
G1 X100.09 Y105.774 E.01683
G1 X123.143 Y128.827 E1.02566
G1 X122.608 Y128.827 E.01683
G1 X100.09 Y106.309 E1.00186
G1 X100.09 Y106.844 E.01683
G1 X122.073 Y128.827 E.97805
G1 X121.884 Y128.827 E.00595
G1 X121.423 Y128.712 E.01496
G1 X100.103 Y107.392 E.94855
G1 X100.131 Y107.955 E.01774
G1 X120.709 Y128.533 E.91555
G1 X119.996 Y128.355 E.02314
G1 X100.159 Y108.518 E.88256
G1 X100.188 Y109.082 E.01774
G1 X119.283 Y128.177 E.84956
G1 X118.569 Y127.998 E.02314
G1 X100.216 Y109.645 E.81657
G1 X100.244 Y110.208 E.01774
M73 P2 R211
G1 X117.856 Y127.82 E.78358
G1 X117.142 Y127.642 E.02314
G1 X100.272 Y110.771 E.75058
G1 X100.3 Y111.335 E.01774
G1 X116.429 Y127.463 E.71759
G1 X115.715 Y127.285 E.02314
G1 X100.444 Y112.014 E.67944
G1 X100.592 Y112.697 E.02199
G1 X115.002 Y127.107 E.64112
G1 X114.289 Y126.928 E.02314
G1 X100.74 Y113.38 E.60279
G1 X100.888 Y114.063 E.02199
G1 X113.575 Y126.75 E.56447
G1 X113.423 Y126.712 E.00494
G1 X112.722 Y126.431 E.02376
G1 X101.036 Y114.746 E.5199
G1 X101.184 Y115.429 E.02199
G1 X111.83 Y126.074 E.47364
G1 X110.938 Y125.718 E.03022
G1 X101.332 Y116.112 E.42738
G1 X101.48 Y116.795 E.02199
G1 X109.89 Y125.205 E.37418
G1 X108.82 Y124.67 E.03764
G1 X101.628 Y117.478 E.31998
G1 X101.661 Y117.632 E.00494
G1 X102.076 Y118.461 E.02918
G1 X107.245 Y123.63 E.22997
G1 X105.931 Y122.851 E.04807
G1 X102.611 Y119.531 E.14769
G1 X103.146 Y120.602 E.03764
G1 X104.99 Y122.445 E.082
M204 S1000
; stop printing object mic-holder.stl id:0 copy 0
M106 S84.15
;LAYER_CHANGE
;Z:0.5
;HEIGHT:0.3
;BEFORE_LAYER_CHANGE
G92 E0.0
;0.5


;WIPE_START
G1 F8640
G1 X103.146 Y120.602 E-.60187
G1 X102.84 Y119.989 E-.15813
;WIPE_END
G1 E-.04 F2100
G1 Z.6 F720
;AFTER_LAYER_CHANGE
;0.5
G1 X99.757 Y121.531 F10800
G1 Z.5 F720
G1 E.8 F2100
;TYPE:Skirt/Brim
;WIDTH:0.42
G1 F2700
G1 X98.518 Y119.053 E.12288
G1 X98.321 Y118.493 E.02632
G1 X96.915 Y112.002 E.29459
G1 X96.644 Y107.168 E.21477
G1 X96.646 Y102.716 E.19743
G1 X96.914 Y98.002 E.20945
G1 X98.321 Y91.507 E.29477
G1 X98.518 Y90.947 E.02632
G1 X100.142 Y87.7 E.16104
G1 X100.587 Y87.082 E.03378
G1 X101.901 Y85.796 E.08154
G1 X103.498 Y84.582 E.08897
G1 X107.159 Y82.307 E.19118
G1 X109.504 Y81.143 E.11612
G1 X112.516 Y79.962 E.14353
G1 X121.176 Y77.797 E.39592
G1 X121.753 Y77.726 E.02576
G1 X128.247 Y77.726 E.28808
G1 X128.824 Y77.797 E.02576
G1 X137.484 Y79.962 E.39592
G1 X140.676 Y81.224 E.15228
G1 X143.038 Y82.417 E.11736
G1 X146.692 Y84.714 E.1914
G1 X148.33 Y86 E.09239
G1 X149.413 Y87.082 E.0679
G1 X149.858 Y87.7 E.03378
G1 X151.481 Y90.945 E.16095
G1 X151.678 Y91.505 E.02631
G1 X153.085 Y97.996 E.29459
G1 X153.356 Y102.832 E.21484
G1 X153.354 Y107.284 E.19745
G1 X153.086 Y111.993 E.2092
