; generated by PrusaSlicer 2.4.1+x64 on 2022-03-19 at 22:20:27 UTC

; 

; external perimeters extrusion width = 0.60mm
; perimeters extrusion width = 0.50mm
; infill extrusion width = 0.50mm
; solid infill extrusion width = 0.50mm
; top infill extrusion width = 0.45mm
; first layer extrusion width = 0.42mm

M73 P0 R59
M73 Q0 S59
M201 X1000 Y1000 Z200 E5000 ; sets maximum accelerations, mm/sec^2
M203 X200 Y200 Z12 E120 ; sets maximum feedrates, mm / sec
M204 P1250 R1250 T1250 ; sets acceleration (P, T) and retract acceleration (R), mm/sec^2
M205 X8.00 Y8.00 Z0.40 E4.50 ; sets the jerk limits, mm/sec
M205 S0 T0 ; sets the minimum extruding and travel feed rate, mm/sec
M107
;TYPE:Custom
M862.3 P "MK3S" ; printer model check
M862.1 P0.4 ; nozzle diameter check
M115 U3.10.1 ; tell printer latest fw version
G90 ; use absolute coordinates
M83 ; extruder relative mode
M104 S215 ; set extruder temp
M140 S60 ; set bed temp
M190 S60 ; wait for bed temp
M109 S215 ; wait for extruder temp
G28 W ; home all without mesh bed level
G80 ; mesh bed leveling
G1 Z0.2 F720
G1 Y-3 F1000 ; go outside print area
G92 E0
G1 X60 E9 F1000 ; intro line
G1 X100 E12.5 F1000 ; intro line
G92 E0
M221 S95

; Don't change E values below. Excessive value can damage the printer.

M907 E538 ; set extruder motor current
G21 ; set units to millimeters
G90 ; use absolute coordinates
M83 ; use relative distances for extrusion
M900 K0.05 ; Filament gcode LA 1.5
M900 K30 ; Filament gcode LA 1.0
M107
;LAYER_CHANGE
;Z:0.2
;HEIGHT:0.2
;BEFORE_LAYER_CHANGE
G92 E0.0
;0.2


G1 E-.8 F2100
G1 Z.4 F720
;AFTER_LAYER_CHANGE
;0.2
G1 X100.587 Y87.082 F10800
G1 Z.2 F720
G1 E.8 F2100
M204 S800
;TYPE:Skirt/Brim
;WIDTH:0.42
G1 F1200
G1 X101.901 Y85.796 E.05764
G1 X103.498 Y84.582 E.06289
G1 X107.158 Y82.307 E.13514
G1 X109.504 Y81.143 E.08208
G1 X112.516 Y79.962 E.10146
G1 X121.176 Y77.797 E.27988
G1 X121.753 Y77.726 E.01821
G1 X128.247 Y77.726 E.20364
G1 X128.824 Y77.797 E.01821
G1 X137.484 Y79.962 E.27988
G1 X140.676 Y81.224 E.10765
G1 X143.038 Y82.417 E.08296
G1 X146.692 Y84.714 E.1353
G1 X148.33 Y86 E.06531
G1 X149.413 Y87.082 E.048
G1 X149.858 Y87.7 E.02388
G1 X151.482 Y90.947 E.11384
G1 X151.679 Y91.507 E.01861
G1 X153.086 Y98.002 E.20837
G1 X153.356 Y102.835 E.15178
G1 X153.354 Y107.284 E.13948
G1 X153.086 Y111.992 E.14785
G1 X151.679 Y118.493 E.20857
G1 X151.482 Y119.053 E.0186
G1 X149.858 Y122.3 E.11384
G1 X149.413 Y122.918 E.02388
G1 X148.099 Y124.204 E.05764
G1 X146.502 Y125.418 E.06289
G1 X142.841 Y127.693 E.13514
G1 X140.496 Y128.857 E.08208
G1 X137.484 Y130.038 E.10146
G1 X128.824 Y132.203 E.27988
G1 X128.247 Y132.274 E.01821
G1 X121.753 Y132.274 E.20364
G1 X121.176 Y132.203 E.01821
G1 X112.516 Y130.038 E.27988
G1 X109.324 Y128.776 E.10765
G1 X106.962 Y127.583 E.08296
G1 X103.308 Y125.286 E.1353
G1 X101.67 Y124 E.06531
G1 X100.587 Y122.918 E.048
G1 X100.142 Y122.3 E.02388
G1 X98.518 Y119.053 E.11384
G1 X98.321 Y118.493 E.01861
G1 X96.914 Y111.998 E.20837
G1 X96.647 Y107.294 E.14774
G1 X96.644 Y102.835 E.13979
G1 X96.913 Y98.012 E.15146
G1 X98.321 Y91.507 E.20869
G1 X98.518 Y90.947 E.01861
G1 X100.142 Y87.7 E.11384
G1 X100.552 Y87.131 E.022
M204 S1000
; printing object mic-holder.stl id:0 copy 0
;WIPE_START
G1 F8640
G1 X101.901 Y85.796 E-.43815
G1 X103.011 Y84.953 E-.32185
;WIPE_END
G1 E-.04 F2100
G1 Z.6 F720
G1 X115.892 Y98.334 F10800
G1 Z.2 F720
G1 E.8 F2100
M204 S800
;TYPE:Perimeter
G1 F1200
G1 X117.445 Y96.609 E.07277
G1 X119.354 Y95.221 E.07401
G1 X121.511 Y94.261 E.07401
G1 X123.82 Y93.77 E.07401
G1 X126.18 Y93.77 E.07401
G1 X128.489 Y94.261 E.07401
G1 X130.646 Y95.221 E.07401
G1 X132.555 Y96.609 E.07401
G1 X134.135 Y98.363 E.07401
G1 X135.315 Y100.407 E.07401
G1 X136.045 Y102.652 E.07401
G1 X136.291 Y105 E.07401
G1 X136.045 Y107.348 E.07401
G1 X135.315 Y109.593 E.07401
G1 X134.135 Y111.637 E.07401
G1 X132.555 Y113.391 E.07401
G1 X130.646 Y114.779 E.07401
G1 X128.489 Y115.739 E.07401
G1 X126.18 Y116.23 E.07401
G1 X123.82 Y116.23 E.07401
G1 X121.511 Y115.739 E.07401
G1 X119.354 Y114.779 E.07401
G1 X117.445 Y113.391 E.07401
G1 X115.865 Y111.637 E.07401
G1 X114.685 Y109.593 E.07401
G1 X113.955 Y107.348 E.07401
G1 X113.709 Y105 E.07401
G1 X113.955 Y102.652 E.07401
G1 X114.685 Y100.407 E.07401
G1 X115.855 Y98.381 E.07338
M204 S1000
G1 X116.172 Y98.586 F10800
M204 S800
;TYPE:External perimeter
G1 F1200
G1 X117.698 Y96.891 E.07153
G1 X119.544 Y95.55 E.07153
G1 X121.628 Y94.622 E.07153
G1 X123.859 Y94.148 E.07153
G1 X126.141 Y94.148 E.07153
G1 X128.372 Y94.622 E.07153
G1 X130.456 Y95.55 E.07153
G1 X132.302 Y96.891 E.07153
G1 X133.828 Y98.586 E.07153
G1 X134.969 Y100.562 E.07153
G1 X135.674 Y102.731 E.07153
G1 X135.912 Y105 E.07153
G1 X135.674 Y107.269 E.07153
G1 X134.969 Y109.438 E.07153
G1 X133.828 Y111.414 E.07153
G1 X132.302 Y113.109 E.07153
G1 X130.456 Y114.45 E.07153
G1 X128.372 Y115.378 E.07153
G1 X126.141 Y115.852 E.07153
G1 X123.859 Y115.852 E.07153
G1 X121.628 Y115.378 E.07153
G1 X119.544 Y114.45 E.07153
G1 X117.698 Y113.109 E.07153
G1 X116.172 Y111.414 E.07153
G1 X115.031 Y109.438 E.07153
G1 X114.326 Y107.269 E.07153
G1 X114.088 Y105 E.07153
G1 X114.326 Y102.731 E.07153
G1 X115.031 Y100.562 E.07153
G1 X116.142 Y98.638 E.06965
M204 S1000
G1 X116.009 Y98.221 F10800
;WIPE_START
G1 F8640
G1 X117.698 Y96.891 E-.54031
G1 X118.468 Y96.331 E-.21969
;WIPE_END
G1 E-.04 F2100
G1 Z.6 F720
G1 X102.915 Y89.229 F10800
G1 Z.2 F720
G1 E.8 F2100
M204 S800
;TYPE:Perimeter
G1 F1200
G1 X103.871 Y88.273 E.04239
G1 X105.199 Y87.252 E.05253
G1 X107.016 Y86.183 E.0661
G1 X108.617 Y85.115 E.06034
G1 X110.709 Y84.069 E.07333
G1 X113.336 Y83.019 E.08869
G1 X121.849 Y80.89 E.27516
G1 X128.151 Y80.89 E.19756
G1 X136.664 Y83.019 E.27516
G1 X139.291 Y84.069 E.08869
G1 X141.383 Y85.115 E.07333
G1 X142.984 Y86.183 E.06034
G1 X144.801 Y87.252 E.0661
G1 X146.129 Y88.273 E.05253
G1 X147.085 Y89.229 E.04239
G1 X148.607 Y92.274 E.10673
G1 X149.98 Y98.609 E.20324
G1 X150.192 Y102.855 E.13329
G1 X150.192 Y107.145 E.13453
G1 X149.98 Y111.391 E.13329
G1 X148.607 Y117.726 E.20324
G1 X147.085 Y120.771 E.10673
G1 X146.129 Y121.727 E.04239
G1 X144.801 Y122.748 E.05253
G1 X142.984 Y123.817 E.0661
G1 X141.383 Y124.885 E.06034
G1 X139.291 Y125.931 E.07333
G1 X136.664 Y126.981 E.08869
G1 X128.151 Y129.11 E.27516
G1 X121.849 Y129.11 E.19756
G1 X113.336 Y126.981 E.27516
G1 X110.709 Y125.931 E.08869
G1 X108.617 Y124.885 E.07333
G1 X107.016 Y123.817 E.06034
G1 X105.199 Y122.748 E.0661
G1 X103.871 Y121.727 E.05253
G1 X102.915 Y120.771 E.04239
G1 X101.393 Y117.726 E.10673
G1 X100.02 Y111.391 E.20324
G1 X99.808 Y107.145 E.13329
G1 X99.808 Y102.855 E.13453
G1 X100.02 Y98.609 E.13329
G1 X101.393 Y92.274 E.20324
G1 X102.888 Y89.283 E.10485
M204 S1000
G1 X102.605 Y89.006 F10800
M204 S800
;TYPE:External perimeter
G1 F1200
G1 X103.622 Y87.989 E.04508
G1 X104.988 Y86.938 E.05403
G1 X106.816 Y85.863 E.0665
G1 X108.428 Y84.788 E.06075
G1 X110.555 Y83.725 E.07456
G1 X113.219 Y82.659 E.08998
G1 X121.803 Y80.513 E.27742
G1 X128.197 Y80.513 E.20048
G1 X136.781 Y82.659 E.27742
G1 X139.445 Y83.725 E.08998
G1 X141.572 Y84.788 E.07456
G1 X143.184 Y85.863 E.06075
G1 X145.012 Y86.938 E.0665
G1 X146.378 Y87.989 E.05403
G1 X147.395 Y89.006 E.04508
G1 X148.966 Y92.148 E.11013
G1 X150.355 Y98.559 E.2057
G1 X150.569 Y102.845 E.13456
G1 X150.569 Y107.155 E.13512
M73 Q1 S59
G1 X150.355 Y111.441 E.13456
G1 X148.966 Y117.852 E.2057
M73 P1 R59
G1 X147.395 Y120.994 E.11013
G1 X146.378 Y122.011 E.04508
G1 X145.012 Y123.062 E.05403
G1 X143.184 Y124.137 E.0665
G1 X141.572 Y125.212 E.06075
G1 X139.445 Y126.275 E.07456
G1 X136.781 Y127.341 E.08998
G1 X128.197 Y129.487 E.27742
G1 X121.803 Y129.487 E.20048
G1 X113.219 Y127.341 E.27742
G1 X110.555 Y126.275 E.08998
G1 X108.428 Y125.212 E.07456
G1 X106.816 Y124.137 E.06075
G1 X104.988 Y123.062 E.0665
G1 X103.622 Y122.011 E.05403
G1 X102.605 Y120.994 E.04508
G1 X101.034 Y117.852 E.11013
G1 X99.645 Y111.441 E.2057
G1 X99.431 Y107.155 E.13456
G1 X99.431 Y102.845 E.13512
G1 X99.645 Y98.559 E.13456
G1 X101.034 Y92.148 E.2057
G1 X102.578 Y89.059 E.10825
M204 S1000
G1 X103.003 Y89.046 F10800
;WIPE_START
G1 F8640
G1 X103.622 Y87.989 E-.34514
G1 X104.988 Y86.938 E-.39792
G1 X105.051 Y86.901 E-.01694
;WIPE_END
G1 E-.04 F2100
G1 Z.6 F720
G1 X145.01 Y87.555 F10800
G1 Z.2 F720
G1 E.8 F2100
M204 S800
;TYPE:Solid infill
;WIDTH:0.421274
G1 F1200
G1 X146.854 Y89.399 E.08202
G1 X147.389 Y90.469 E.03764
G1 X144.069 Y87.149 E.1477
G1 X142.755 Y86.37 E.04807
G1 X147.924 Y91.539 E.22999
G1 X148.339 Y92.368 E.02918
G1 X148.372 Y92.522 E.00494
G1 X141.18 Y85.33 E.31999
G1 X140.11 Y84.795 E.03764
G1 X148.52 Y93.205 E.37419
G1 X148.668 Y93.888 E.02199
G1 X139.062 Y84.282 E.42738
G1 X138.17 Y83.925 E.03022
G1 X148.816 Y94.571 E.47364
G1 X148.964 Y95.254 E.02199
M73 P1 R58
G1 X137.278 Y83.569 E.51991
G1 X136.577 Y83.288 E.02375
G1 X136.425 Y83.25 E.00495
G1 X149.112 Y95.937 E.56447
G1 X149.26 Y96.62 E.02199
G1 X135.711 Y83.072 E.6028
G1 X134.998 Y82.893 E.02314
G1 X149.408 Y97.303 E.64112
G1 X149.556 Y97.987 E.02199
G1 X134.284 Y82.715 E.67945
G1 X133.571 Y82.537 E.02314
G1 X149.7 Y98.665 E.71759
G1 X149.728 Y99.229 E.01774
M73 Q1 S58
G1 X132.858 Y82.358 E.75059
G1 X132.144 Y82.18 E.02314
G1 X149.756 Y99.792 E.78358
G1 X149.784 Y100.355 E.01774
G1 X131.431 Y82.002 E.81657
G1 X130.717 Y81.823 E.02314
G1 X149.812 Y100.918 E.84957
G1 X149.841 Y101.482 E.01774
G1 X130.004 Y81.645 E.88256
G1 X129.29 Y81.467 E.02314
G1 X149.869 Y102.045 E.91556
G1 X149.897 Y102.608 E.01774
G1 X128.577 Y81.288 E.94855
G1 X128.116 Y81.173 E.01496
G1 X127.927 Y81.173 E.00595
G1 X149.91 Y103.156 E.97805
G1 X149.91 Y103.691 E.01683
G1 X127.392 Y81.173 E1.00186
G1 X126.856 Y81.173 E.01683
G1 X149.91 Y104.226 E1.02567
G1 X149.91 Y104.761 E.01683
G1 X126.321 Y81.173 E1.04947
G1 X125.786 Y81.173 E.01683
G1 X149.91 Y105.296 E1.07328
G1 X149.91 Y105.831 E.01683
G1 X125.251 Y81.173 E1.09709
G1 X124.716 Y81.173 E.01683
G1 X149.91 Y106.366 E1.12089
G1 X149.91 Y106.901 E.01683
M73 P2 R58
M73 Q2 S58
G1 X124.181 Y81.173 E1.1447
G1 X123.646 Y81.173 E.01683
G1 X149.895 Y107.422 E1.16787
G1 X149.87 Y107.932 E.01605
G1 X123.111 Y81.173 E1.19054
G1 X122.576 Y81.173 E.01683
G1 X149.844 Y108.441 E1.21322
G1 X149.819 Y108.951 E.01605
G1 X122.041 Y81.173 E1.23589
G1 X121.884 Y81.173 E.00492
G1 X121.581 Y81.249 E.00982
G1 X149.793 Y109.461 E1.25519
G1 X149.768 Y109.97 E.01605
G1 X121.153 Y81.356 E1.27311
G1 X120.725 Y81.463 E.01388
G1 X149.742 Y110.48 E1.29102
G1 X149.717 Y110.989 E.01605
G1 X120.297 Y81.57 E1.30893
G1 X119.869 Y81.677 E.01388
G1 X149.672 Y111.479 E1.32595
G1 X149.576 Y111.919 E.01416
G1 X119.441 Y81.784 E1.34076
G1 X119.013 Y81.891 E.01388
G1 X149.481 Y112.359 E1.35557
G1 X149.386 Y112.799 E.01416
G1 X118.585 Y81.998 E1.37037
G1 X118.157 Y82.105 E.01388
G1 X131.663 Y95.611 E.60091
G1 X132.746 Y96.398 E.0421
G1 X134.365 Y98.196 E.07613
G1 X134.525 Y98.473 E.01005
G1 X149.29 Y113.238 E.65695
G1 X149.195 Y113.678 E.01416
G1 X135.256 Y99.739 E.62019
G1 X135.575 Y100.292 E.0201
G1 X135.72 Y100.738 E.01476
G1 X149.1 Y114.118 E.59529
G1 X149.005 Y114.558 E.01416
G1 X135.977 Y101.531 E.5796
G1 X136.235 Y102.323 E.02622
M73 P2 R57
G1 X148.909 Y114.997 E.5639
G1 X148.814 Y115.437 E.01416
G1 X136.364 Y102.987 E.55391
G1 X136.427 Y103.585 E.01891
G1 X148.719 Y115.877 E.54688
G1 X148.623 Y116.317 E.01416
M73 P3 R57
M73 Q3 S58
G1 X136.49 Y104.183 E.53984
G1 X136.553 Y104.781 E.01891
G1 X148.528 Y116.757 E.5328
G1 X148.433 Y117.196 E.01416
G1 X136.543 Y105.307 E.52898
G1 X136.493 Y105.791 E.01532
G1 X148.337 Y117.635 E.52696
G1 X148.158 Y117.992 E.01255
G1 X136.442 Y106.275 E.52129
M73 Q3 S57
G1 X136.391 Y106.76 E.01532
G1 X147.98 Y118.349 E.51562
G1 X147.802 Y118.705 E.01255
G1 X136.34 Y107.244 E.50995
G1 X136.323 Y107.407 E.00516
G1 X136.236 Y107.675 E.00886
G1 X147.623 Y119.062 E.50665
G1 X147.445 Y119.419 E.01255
G1 X136.105 Y108.078 E.50455
G1 X135.973 Y108.482 E.01336
G1 X147.267 Y119.776 E.50246
G1 X147.088 Y120.132 E.01255
G1 X135.842 Y108.886 E.50036
G1 X135.711 Y109.29 E.01336
G1 X146.91 Y120.489 E.49826
G1 X146.853 Y120.603 E.00402
G1 X146.671 Y120.785 E.00809
G1 X135.58 Y109.694 E.49347
G1 X135.386 Y110.035 E.01235
G1 X146.403 Y121.053 E.49017
G1 X146.136 Y121.32 E.0119
G1 X135.19 Y110.375 E.48699
G1 X134.994 Y110.714 E.01232
G1 X145.859 Y121.578 E.48337
G1 X145.556 Y121.811 E.012
G1 X134.799 Y111.053 E.47863
G1 X134.603 Y111.392 E.01232
G1 X145.254 Y122.043 E.47388
G1 X144.951 Y122.276 E.012
G1 X134.407 Y111.732 E.46914
G1 X134.365 Y111.804 E.00263
G1 X134.166 Y112.025 E.00937
G1 X144.649 Y122.509 E.46642
G1 X144.313 Y122.708 E.01229
G1 X133.912 Y112.307 E.46274
G1 X133.659 Y112.589 E.01192
G1 X143.976 Y122.906 E.45903
G1 X143.639 Y123.104 E.0123
G1 X133.405 Y112.87 E.45532
G1 X133.152 Y113.152 E.01192
G1 X143.302 Y123.302 E.45161
G1 X142.965 Y123.5 E.0123
G1 X132.898 Y113.433 E.4479
G1 X132.746 Y113.602 E.00717
G1 X132.622 Y113.692 E.00481
G1 X142.638 Y123.708 E.44562
G1 X142.317 Y123.922 E.01214
G1 X132.312 Y113.917 E.44512
G1 X132.002 Y114.143 E.01205
G1 X141.996 Y124.136 E.44463
G1 X141.675 Y124.35 E.01214
G1 X131.692 Y114.368 E.44413
G1 X131.382 Y114.593 E.01205
G1 X141.354 Y124.564 E.44364
G1 X141.24 Y124.64 E.00429
G1 X141.01 Y124.755 E.00811
G1 X131.073 Y114.818 E.44212
G1 X130.758 Y115.038 E.01209
G1 X140.653 Y124.934 E.44025
G1 X140.296 Y125.112 E.01255
G1 X130.387 Y115.203 E.44086
G1 X130.017 Y115.368 E.01275
G1 X139.94 Y125.29 E.44146
G1 X139.583 Y125.469 E.01255
G1 X129.647 Y115.533 E.44206
G1 X129.277 Y115.698 E.01275
G1 X139.226 Y125.647 E.44266
G1 X138.848 Y125.804 E.01289
G1 X128.907 Y115.863 E.44229
G1 X128.528 Y116.02 E.01288
G1 X138.465 Y125.956 E.44211
G1 X138.083 Y126.109 E.01295
G1 X128.087 Y116.113 E.44474
G1 X127.646 Y116.207 E.01419
G1 X137.701 Y126.262 E.44736
G1 X137.319 Y126.415 E.01295
G1 X127.205 Y116.301 E.44999
G1 X126.763 Y116.395 E.01419
G1 X136.937 Y126.568 E.45262
G1 X136.552 Y126.718 E.013
G1 X126.322 Y116.489 E.45513
G1 X126.21 Y116.512 E.00361
G1 X125.811 Y116.512 E.01256
G1 X136.124 Y126.825 E.45883
G1 X135.696 Y126.932 E.01388
G1 X125.276 Y116.512 E.46359
G1 X124.741 Y116.512 E.01683
G1 X135.267 Y127.039 E.46835
G1 X134.839 Y127.146 E.01388
M73 P4 R57
M73 Q4 S57
G1 X124.206 Y116.512 E.47311
G1 X123.79 Y116.512 E.01308
G1 X123.638 Y116.48 E.00488
G1 X134.411 Y127.253 E.47931
G1 X133.983 Y127.36 E.01388
G1 X122.959 Y116.336 E.4905
G1 X122.279 Y116.191 E.02186
G1 X133.555 Y127.467 E.50168
G1 X133.127 Y127.574 E.01388
G1 X121.6 Y116.047 E.51287
G1 X121.423 Y116.009 E.00569
G1 X120.709 Y115.692 E.02457
G1 X132.699 Y127.681 E.53344
G1 X132.271 Y127.788 E.01388
G1 X119.41 Y114.927 E.5722
M204 S1000
;WIPE_START
G1 F8640
G1 X121.738 Y117.255 E-.76
;WIPE_END
G1 E-.04 F2100
G1 Z.6 F720
G1 X130.59 Y95.073 F10800
G1 Z.2 F720
G1 E.8 F2100
M204 S800
G1 F1200
G1 X117.729 Y82.212 E.5722
G1 X117.301 Y82.319 E.01388
G1 X129.29 Y94.308 E.53343
G1 X128.577 Y93.991 E.02456
G1 X128.4 Y93.953 E.00569
G1 X116.873 Y82.426 E.51287
G1 X116.445 Y82.533 E.01388
G1 X127.721 Y93.809 E.50168
G1 X127.041 Y93.664 E.02186
G1 X116.017 Y82.64 E.49049
G1 X115.589 Y82.747 E.01388
G1 X126.362 Y93.52 E.47931
G1 X126.21 Y93.488 E.00487
G1 X125.794 Y93.488 E.01308
G1 X115.161 Y82.854 E.47311
G1 X114.732 Y82.961 E.01388
G1 X125.259 Y93.488 E.46835
G1 X124.724 Y93.488 E.01683
G1 X114.304 Y83.068 E.46359
G1 X113.876 Y83.175 E.01388
G1 X124.189 Y93.488 E.45883
G1 X123.79 Y93.488 E.01255
G1 X123.678 Y93.511 E.00361
G1 X113.448 Y83.282 E.45513
G1 X113.063 Y83.432 E.013
G1 X123.237 Y93.605 E.45262
G1 X122.795 Y93.699 E.01419
G1 X112.681 Y83.585 E.44999
G1 X112.299 Y83.738 E.01295
G1 X122.354 Y93.793 E.44736
G1 X121.913 Y93.887 E.01419
G1 X111.917 Y83.891 E.44474
G1 X111.535 Y84.044 E.01295
G1 X121.471 Y93.98 E.44211
G1 X121.093 Y94.137 E.01288
G1 X111.152 Y84.196 E.44229
G1 X110.774 Y84.353 E.01289
G1 X120.723 Y94.302 E.44266
G1 X120.353 Y94.467 E.01275
G1 X110.417 Y84.531 E.44206
G1 X110.06 Y84.71 E.01255
M73 P4 R56
G1 X119.983 Y94.632 E.44146
G1 X119.612 Y94.797 E.01275
G1 X109.704 Y84.888 E.44086
G1 X109.347 Y85.066 E.01255
