; generated by PrusaSlicer 2.4.1+x64 on 2022-03-19 at 19:19:17 UTC

; 

; external perimeters extrusion width = 0.60mm
; perimeters extrusion width = 0.50mm
; infill extrusion width = 0.50mm
; solid infill extrusion width = 0.50mm
; top infill extrusion width = 0.45mm
; first layer extrusion width = 0.42mm

M73 P0 R46
M73 Q0 S46
M201 X1000 Y1000 Z200 E5000 ; sets maximum accelerations, mm/sec^2
M203 X200 Y200 Z12 E120 ; sets maximum feedrates, mm / sec
M204 P1250 R1250 T1250 ; sets acceleration (P, T) and retract acceleration (R), mm/sec^2
M205 X8.00 Y8.00 Z0.40 E4.50 ; sets the jerk limits, mm/sec
M205 S0 T0 ; sets the minimum extruding and travel feed rate, mm/sec
M107
;TYPE:Custom
M862.3 P "MK3S" ; printer model check
M862.1 P0.4 ; nozzle diameter check
M115 U3.10.1 ; tell printer latest fw version
G90 ; use absolute coordinates
M83 ; extruder relative mode
M104 S215 ; set extruder temp
M140 S60 ; set bed temp
M190 S60 ; wait for bed temp
M109 S215 ; wait for extruder temp
G28 W ; home all without mesh bed level
G80 ; mesh bed leveling
G1 Z0.2 F720
G1 Y-3 F1000 ; go outside print area
G92 E0
G1 X60 E9 F1000 ; intro line
G1 X100 E12.5 F1000 ; intro line
G92 E0
M221 S95

; Don't change E values below. Excessive value can damage the printer.

M907 E538 ; set extruder motor current
G21 ; set units to millimeters
G90 ; use absolute coordinates
M83 ; use relative distances for extrusion
M900 K0.05 ; Filament gcode LA 1.5
M900 K30 ; Filament gcode LA 1.0
M107
;LAYER_CHANGE
;Z:0.2
;HEIGHT:0.2
;BEFORE_LAYER_CHANGE
G92 E0.0
;0.2


G1 E-.8 F2100
G1 Z.4 F720
;AFTER_LAYER_CHANGE
;0.2
G1 X100.569 Y87.069 F10800
G1 Z.2 F720
G1 E.8 F2100
M204 S800
;TYPE:Skirt/Brim
;WIDTH:0.42
G1 F1200
G1 X101.884 Y85.783 E.05768
G1 X103.482 Y84.568 E.06294
G1 X107.145 Y82.291 E.13524
G1 X109.492 Y81.126 E.08215
G1 X112.507 Y79.944 E.10153
G1 X121.173 Y77.777 E.2801
G1 X121.75 Y77.706 E.01821
G1 X128.25 Y77.706 E.2038
G1 X128.827 Y77.777 E.01821
G1 X137.493 Y79.944 E.2801
G1 X140.688 Y81.207 E.10772
G1 X143.052 Y82.401 E.08302
G1 X146.708 Y84.699 E.1354
G1 X148.348 Y85.986 E.06536
G1 X149.431 Y87.069 E.04804
G1 X149.876 Y87.687 E.02388
G1 X151.501 Y90.937 E.11393
G1 X151.698 Y91.497 E.01861
G1 X153.106 Y97.997 E.20854
G1 X153.374 Y102.715 E.14816
G1 X153.377 Y107.167 E.13959
G1 X153.106 Y112.003 E.15189
G1 X151.698 Y118.503 E.20853
G1 X151.501 Y119.063 E.01861
G1 X149.876 Y122.313 E.11393
G1 X149.431 Y122.931 E.02388
G1 X148.116 Y124.217 E.05768
G1 X146.518 Y125.432 E.06294
G1 X142.855 Y127.709 E.13524
G1 X140.508 Y128.874 E.08215
G1 X137.493 Y130.056 E.10153
G1 X128.827 Y132.223 E.2801
M73 P0 R45
G1 X128.25 Y132.294 E.01821
G1 X121.75 Y132.294 E.2038
G1 X121.173 Y132.223 E.01821
G1 X112.507 Y130.056 E.2801
G1 X109.312 Y128.793 E.10772
G1 X106.948 Y127.599 E.08302
G1 X103.292 Y125.301 E.1354
G1 X101.652 Y124.014 E.06536
G1 X100.569 Y122.931 E.04804
G1 X100.124 Y122.313 E.02388
G1 X98.499 Y119.063 E.11393
G1 X98.302 Y118.503 E.01861
G1 X96.894 Y112.003 E.20853
G1 X96.626 Y107.285 E.14816
G1 X96.623 Y102.833 E.13959
G1 X96.894 Y97.997 E.15189
G1 X98.302 Y91.497 E.20853
G1 X98.499 Y90.937 E.01861
G1 X100.124 Y87.687 E.11393
G1 X100.534 Y87.118 E.022
M204 S1000
; printing object mic-holder.stl id:0 copy 0
;WIPE_START
G1 F8640
G1 X101.884 Y85.783 E-.43842
G1 X102.993 Y84.94 E-.32158
;WIPE_END
G1 E-.04 F2100
G1 Z.6 F720
G1 X115.892 Y98.334 F10800
G1 Z.2 F720
G1 E.8 F2100
M204 S800
;TYPE:Perimeter
G1 F1200
G1 X117.445 Y96.609 E.07277
G1 X119.354 Y95.221 E.07401
G1 X121.511 Y94.261 E.07401
G1 X123.82 Y93.77 E.07401
G1 X126.18 Y93.77 E.07401
G1 X128.489 Y94.261 E.07401
G1 X130.646 Y95.221 E.07401
G1 X132.555 Y96.609 E.07401
G1 X134.135 Y98.363 E.07401
G1 X135.315 Y100.407 E.07401
G1 X136.045 Y102.652 E.07401
G1 X136.291 Y105 E.07401
G1 X136.045 Y107.348 E.07401
G1 X135.315 Y109.593 E.07401
G1 X134.135 Y111.637 E.07401
G1 X132.555 Y113.391 E.07401
G1 X130.646 Y114.779 E.07401
G1 X128.489 Y115.739 E.07401
G1 X126.18 Y116.23 E.07401
G1 X123.82 Y116.23 E.07401
G1 X121.511 Y115.739 E.07401
G1 X119.354 Y114.779 E.07401
G1 X117.445 Y113.391 E.07401
G1 X115.865 Y111.637 E.07401
G1 X114.685 Y109.593 E.07401
G1 X113.955 Y107.348 E.07401
G1 X113.709 Y105 E.07401
G1 X113.955 Y102.652 E.07401
G1 X114.685 Y100.407 E.07401
G1 X115.855 Y98.381 E.07337
M204 S1000
G1 X116.172 Y98.586 F10800
M204 S800
;TYPE:External perimeter
G1 F1200
G1 X117.698 Y96.891 E.07153
G1 X119.544 Y95.55 E.07153
G1 X121.628 Y94.622 E.07153
G1 X123.859 Y94.148 E.07153
G1 X126.141 Y94.148 E.07153
G1 X128.372 Y94.622 E.07153
G1 X130.456 Y95.55 E.07153
G1 X132.302 Y96.891 E.07153
G1 X133.828 Y98.586 E.07153
G1 X134.969 Y100.562 E.07153
G1 X135.674 Y102.731 E.07153
G1 X135.912 Y105 E.07153
G1 X135.674 Y107.269 E.07153
G1 X134.969 Y109.438 E.07153
G1 X133.828 Y111.414 E.07153
G1 X132.302 Y113.109 E.07153
G1 X130.456 Y114.45 E.07153
G1 X128.372 Y115.378 E.07153
G1 X126.141 Y115.852 E.07153
G1 X123.859 Y115.852 E.07153
G1 X121.628 Y115.378 E.07153
G1 X119.544 Y114.45 E.07153
G1 X117.698 Y113.109 E.07153
G1 X116.172 Y111.414 E.07153
G1 X115.031 Y109.438 E.07153
G1 X114.326 Y107.269 E.07153
G1 X114.088 Y105 E.07153
G1 X114.326 Y102.731 E.07153
G1 X115.031 Y100.562 E.07153
G1 X116.142 Y98.638 E.06965
M204 S1000
G1 X116.009 Y98.221 F10800
;WIPE_START
G1 F8640
G1 X117.698 Y96.891 E-.54032
G1 X118.468 Y96.331 E-.21968
;WIPE_END
G1 E-.04 F2100
G1 Z.6 F720
G1 X102.897 Y89.216 F10800
G1 Z.2 F720
G1 E.8 F2100
M204 S800
;TYPE:Perimeter
G1 F1200
G1 X103.854 Y88.259 E.04243
G1 X105.183 Y87.237 E.05258
G1 X107.001 Y86.167 E.06615
G1 X108.604 Y85.099 E.06039
G1 X110.698 Y84.052 E.07339
G1 X113.326 Y83.001 E.08876
G1 X121.847 Y80.87 E.27539
G1 X128.156 Y80.871 E.19781
G1 X136.674 Y83.001 E.2753
G1 X139.302 Y84.052 E.08876
G1 X141.396 Y85.099 E.07339
G1 X142.999 Y86.167 E.06039
G1 X144.817 Y87.237 E.06615
G1 X146.146 Y88.259 E.05258
G1 X147.103 Y89.216 E.04243
G1 X148.627 Y92.263 E.10682
G1 X150 Y98.604 E.20341
G1 X150.213 Y102.853 E.1334
G1 X150.213 Y107.147 E.13464
G1 X150 Y111.396 E.1334
M73 Q1 S46
G1 X148.627 Y117.737 E.20341
M73 P1 R45
G1 X147.103 Y120.784 E.10682
G1 X146.146 Y121.741 E.04243
G1 X144.817 Y122.763 E.05258
G1 X142.999 Y123.833 E.06615
G1 X141.396 Y124.901 E.06039
G1 X139.302 Y125.948 E.07339
G1 X136.674 Y126.999 E.08876
G1 X128.153 Y129.13 E.27539
G1 X121.847 Y129.13 E.19773
G1 X113.326 Y126.999 E.27539
G1 X110.698 Y125.948 E.08876
G1 X108.604 Y124.901 E.07339
G1 X107.001 Y123.833 E.06039
G1 X105.183 Y122.763 E.06615
G1 X103.854 Y121.741 E.05258
G1 X102.897 Y120.784 E.04243
G1 X101.373 Y117.737 E.10682
G1 X100 Y111.396 E.20341
G1 X99.787 Y107.147 E.1334
G1 X99.787 Y102.853 E.13464
G1 X100 Y98.604 E.1334
G1 X101.373 Y92.263 E.20341
G1 X102.87 Y89.27 E.10494
M204 S1000
G1 X102.587 Y88.993 F10800
M204 S800
;TYPE:External perimeter
G1 F1200
G1 X103.604 Y87.975 E.04511
G1 X104.972 Y86.924 E.05408
G1 X106.801 Y85.848 E.06656
G1 X108.414 Y84.772 E.0608
G1 X110.543 Y83.708 E.07462
M73 Q1 S45
G1 X113.21 Y82.641 E.09005
G1 X121.8 Y80.493 E.27765
G1 X128.202 Y80.494 E.20073
G1 X136.79 Y82.641 E.27756
G1 X139.457 Y83.708 E.09005
G1 X141.586 Y84.772 E.07462
G1 X143.199 Y85.848 E.0608
G1 X145.028 Y86.924 E.06656
G1 X146.396 Y87.975 E.05408
G1 X147.413 Y88.993 E.04511
G1 X148.985 Y92.137 E.11023
G1 X150.375 Y98.554 E.20586
G1 X150.59 Y102.844 E.13466
G1 X150.59 Y107.156 E.13523
G1 X150.375 Y111.446 E.13466
G1 X148.985 Y117.863 E.20586
G1 X147.413 Y121.007 E.11023
G1 X146.396 Y122.025 E.04511
G1 X145.028 Y123.076 E.05408
G1 X143.199 Y124.152 E.06656
G1 X141.586 Y125.228 E.0608
G1 X139.457 Y126.292 E.07462
G1 X136.79 Y127.359 E.09005
G1 X128.2 Y129.507 E.27765
G1 X121.8 Y129.507 E.20064
G1 X113.21 Y127.359 E.27765
G1 X110.543 Y126.292 E.09005
G1 X108.414 Y125.228 E.07462
G1 X106.801 Y124.152 E.0608
G1 X104.972 Y123.076 E.06656
G1 X103.604 Y122.025 E.05408
G1 X102.587 Y121.007 E.04511
G1 X101.015 Y117.863 E.11023
G1 X99.625 Y111.446 E.20586
G1 X99.41 Y107.156 E.13466
G1 X99.41 Y102.844 E.13523
G1 X99.625 Y98.554 E.13466
G1 X101.015 Y92.137 E.20586
G1 X102.56 Y89.047 E.10834
M204 S1000
G1 X102.985 Y89.033 F10800
;WIPE_START
G1 F8640
G1 X103.604 Y87.975 E-.34541
G1 X104.972 Y86.924 E-.39827
G1 X105.032 Y86.888 E-.01633
;WIPE_END
G1 E-.04 F2100
G1 Z.6 F720
G1 X145.026 Y87.541 F10800
G1 Z.2 F720
G1 E.8 F2100
M204 S800
;TYPE:Solid infill
;WIDTH:0.421584
G1 F1200
G1 X146.872 Y89.386 E.08218
G1 X147.407 Y90.457 E.0377
G1 X144.084 Y87.134 E.14798
G1 X142.768 Y86.354 E.04816
G1 X147.943 Y91.528 E.23041
G1 X148.358 Y92.358 E.02921
G1 X148.391 Y92.512 E.00496
G1 X141.192 Y85.313 E.32055
G1 X140.121 Y84.778 E.0377
G1 X148.539 Y93.196 E.37483
G1 X148.687 Y93.879 E.02202
G1 X139.073 Y84.265 E.42811
G1 X138.181 Y83.908 E.03027
G1 X148.836 Y94.563 E.47445
G1 X148.984 Y95.247 E.02202
G1 X137.288 Y83.551 E.52079
G1 X136.587 Y83.27 E.02378
G1 X136.434 Y83.232 E.00497
G1 X149.132 Y95.93 E.56542
G1 X149.28 Y96.614 E.02202
G1 X135.72 Y83.054 E.60381
G1 X135.006 Y82.875 E.02317
G1 X149.428 Y97.297 E.6422
G1 X149.576 Y97.981 E.02202
G1 X134.292 Y82.697 E.68059
G1 X133.578 Y82.518 E.02317
G1 X149.72 Y98.66 E.71879
G1 X149.748 Y99.224 E.01777
G1 X132.864 Y82.34 E.75184
G1 X132.15 Y82.161 E.02317
G1 X149.776 Y99.788 E.78489
G1 X149.805 Y100.352 E.01777
G1 X131.436 Y81.983 E.81794
G1 X130.722 Y81.804 E.02317
G1 X149.833 Y100.915 E.85099
G1 X149.861 Y101.479 E.01777
M73 P2 R45
M73 Q2 S45
G1 X130.008 Y81.626 E.88404
G1 X129.294 Y81.447 E.02317
G1 X149.889 Y102.043 E.91708
G1 X149.917 Y102.606 E.01777
G1 X128.58 Y81.268 E.95013
G1 X128.121 Y81.154 E.01488
G1 X127.929 Y81.154 E.00603
G1 X149.93 Y103.155 E.97965
G1 X149.93 Y103.69 E.01686
G1 X127.394 Y81.154 E1.0035
G1 X126.858 Y81.154 E.01686
G1 X149.93 Y104.226 E1.02734
G1 X149.93 Y104.761 E.01686
G1 X126.323 Y81.154 E1.05119
G1 X125.787 Y81.154 E.01686
G1 X149.93 Y105.297 E1.07504
G1 X149.93 Y105.832 E.01686
G1 X125.252 Y81.154 E1.09889
G1 X124.716 Y81.153 E.01686
G1 X149.93 Y106.368 E1.12274
G1 X149.93 Y106.903 E.01686
M73 P2 R44
G1 X124.18 Y81.153 E1.14658
G1 X123.645 Y81.153 E.01686
G1 X149.916 Y107.424 E1.1698
G1 X149.89 Y107.934 E.01608
G1 X123.109 Y81.153 E1.19251
G1 X122.574 Y81.153 E.01686
G1 X149.865 Y108.444 E1.21522
G1 X149.839 Y108.954 E.01608
G1 X122.038 Y81.153 E1.23793
G1 X121.882 Y81.153 E.00493
G1 X121.578 Y81.229 E.00984
G1 X149.814 Y109.464 E1.25727
G1 X149.788 Y109.974 E.01608
M73 P3 R44
M73 Q3 S45
G1 X121.15 Y81.336 E1.27521
G1 X120.722 Y81.443 E.0139
G1 X149.763 Y110.484 E1.29315
G1 X149.737 Y110.995 E.01608
G1 X120.293 Y81.55 E1.31109
G1 X119.865 Y81.657 E.0139
G1 X149.692 Y111.485 E1.32814
G1 X149.597 Y111.925 E.01418
M73 Q3 S44
G1 X119.436 Y81.765 E1.34297
G1 X119.008 Y81.872 E.0139
G1 X149.501 Y112.365 E1.3578
G1 X149.406 Y112.805 E.01418
G1 X118.58 Y81.979 E1.37263
G1 X118.151 Y82.086 E.0139
G1 X131.711 Y95.646 E.60381
G1 X132.746 Y96.398 E.04026
G1 X134.365 Y98.196 E.0762
G1 X134.507 Y98.441 E.00893
G1 X149.31 Y113.245 E.65918
G1 X149.215 Y113.685 E.01418
G1 X135.238 Y99.708 E.62236
G1 X135.575 Y100.292 E.02121
G1 X135.714 Y100.72 E.01417
G1 X149.12 Y114.125 E.59693
G1 X149.024 Y114.566 E.01418
G1 X135.972 Y101.513 E.58121
G1 X136.23 Y102.306 E.02626
G1 X148.929 Y115.006 E.56548
G1 X148.834 Y115.446 E.01418
G1 X136.363 Y102.975 E.5553
G1 X136.426 Y103.574 E.01895
G1 X148.738 Y115.886 E.54825
G1 X148.643 Y116.326 E.01418
G1 X136.489 Y104.172 E.5412
G1 X136.552 Y104.77 E.01895
G1 X148.548 Y116.766 E.53416
G1 X148.452 Y117.207 E.01418
G1 X136.544 Y105.299 E.53023
G1 X136.493 Y105.783 E.01534
G1 X148.356 Y117.646 E.52821
G1 X148.177 Y118.003 E.01257
M73 P4 R44
G1 X136.442 Y106.268 E.52253
G1 X136.392 Y106.752 E.01534
M73 Q4 S44
G1 X147.999 Y118.36 E.51685
G1 X147.82 Y118.717 E.01257
G1 X136.341 Y107.237 E.51117
G1 X136.323 Y107.407 E.00537
G1 X136.237 Y107.669 E.00869
G1 X147.642 Y119.074 E.50782
G1 X147.463 Y119.431 E.01257
G1 X136.106 Y108.074 E.50572
G1 X135.975 Y108.478 E.01338
G1 X147.285 Y119.788 E.50362
G1 X147.106 Y120.145 E.01257
G1 X135.843 Y108.882 E.50152
G1 X135.712 Y109.286 E.01338
G1 X146.928 Y120.502 E.49941
G1 X146.871 Y120.616 E.00403
G1 X146.689 Y120.798 E.0081
G1 X135.581 Y109.69 E.49461
G1 X135.388 Y110.033 E.01238
G1 X146.421 Y121.066 E.49129
G1 X146.153 Y121.334 E.01192
G1 X135.192 Y110.372 E.4881
G1 X134.996 Y110.712 E.01234
G1 X145.876 Y121.592 E.48447
G1 X145.573 Y121.825 E.01202
G1 X134.8 Y111.051 E.47972
G1 X134.604 Y111.391 E.01234
G1 X145.271 Y122.058 E.47497
G1 X144.968 Y122.29 E.01202
G1 X134.408 Y111.73 E.47022
G1 X134.365 Y111.804 E.00269
G1 X134.167 Y112.025 E.00934
G1 X144.665 Y122.523 E.46748
G1 X144.329 Y122.722 E.01231
G1 X133.913 Y112.306 E.4638
G1 X133.659 Y112.588 E.01194
G1 X143.992 Y122.921 E.46009
G1 X143.654 Y123.119 E.01232
G1 X133.405 Y112.87 E.45637
G1 X133.152 Y113.152 E.01194
G1 X143.317 Y123.317 E.45265
G1 X142.98 Y123.516 E.01232
G1 X132.898 Y113.433 E.44894
G1 X132.746 Y113.602 E.00716
G1 X132.622 Y113.693 E.00483
G1 X142.653 Y123.724 E.44666
G1 X142.331 Y123.938 E.01216
G1 X132.311 Y113.918 E.44616
G1 X132.001 Y114.143 E.01207
G1 X142.01 Y124.152 E.44567
G1 X141.689 Y124.366 E.01216
G1 X131.691 Y114.369 E.44517
G1 X131.381 Y114.594 E.01207
G1 X141.367 Y124.58 E.44467
G1 X141.254 Y124.656 E.0043
G1 X141.023 Y124.772 E.00812
G1 X131.071 Y114.819 E.44315
G1 X130.755 Y115.039 E.01211
M73 P4 R43
G1 X140.666 Y124.95 E.4413
G1 X140.309 Y125.129 E.01257
G1 X130.385 Y115.204 E.4419
G1 X130.014 Y115.369 E.01277
G1 X139.952 Y125.307 E.44251
G1 X139.595 Y125.486 E.01257
G1 X129.644 Y115.534 E.44311
G1 X129.273 Y115.699 E.01277
G1 X139.238 Y125.664 E.44371
G1 X138.859 Y125.821 E.01291
G1 X128.903 Y115.864 E.44334
G1 X128.523 Y116.021 E.01291
G1 X138.477 Y125.974 E.44319
G1 X138.094 Y126.127 E.01297
G1 X128.082 Y116.114 E.44583
G1 X127.64 Y116.208 E.01422
G1 X137.712 Y126.28 E.44846
G1 X137.329 Y126.433 E.01297
M73 P5 R43
G1 X127.199 Y116.302 E.45109
G1 X126.757 Y116.396 E.01422
M73 Q5 S44
G1 X136.947 Y126.586 E.45372
G1 X136.561 Y126.736 E.01302
G1 X126.315 Y116.49 E.45624
G1 X126.21 Y116.512 E.00339
G1 X125.802 Y116.512 E.01284
G1 X136.133 Y126.843 E.46001
G1 X135.704 Y126.95 E.0139
G1 X125.267 Y116.512 E.46478
G1 X124.731 Y116.512 E.01686
G1 X135.276 Y127.057 E.46955
G1 X134.848 Y127.164 E.0139
G1 X124.196 Y116.512 E.47432
G1 X123.79 Y116.512 E.01277
G1 X123.625 Y116.477 E.00531
G1 X134.419 Y127.272 E.48065
G1 X133.991 Y127.379 E.0139
G1 X122.945 Y116.333 E.49185
G1 X122.265 Y116.188 E.02189
G1 X133.562 Y127.486 E.50306
G1 X133.134 Y127.593 E.0139
G1 X121.585 Y116.044 E.51427
G1 X121.423 Y116.009 E.00521
G1 X120.687 Y115.682 E.02535
G1 X132.706 Y127.7 E.53515
G1 X132.277 Y127.807 E.0139
G1 X119.387 Y114.917 E.57396
M204 S1000
;WIPE_START
G1 F8640
G1 X121.715 Y117.245 E-.76
;WIPE_END
G1 E-.04 F2100
G1 Z.6 F720
G1 X130.613 Y95.083 F10800
G1 Z.2 F720
G1 E.8 F2100
M204 S800
G1 F1200
G1 X117.723 Y82.193 E.57396
G1 X117.294 Y82.3 E.0139
G1 X129.312 Y94.318 E.53514
G1 X128.577 Y93.991 E.02534
G1 X128.415 Y93.956 E.00521
G1 X116.866 Y82.407 E.51426
G1 X116.438 Y82.514 E.0139
M73 Q5 S43
G1 X127.735 Y93.812 E.50306
G1 X127.055 Y93.667 E.02189
G1 X116.009 Y82.621 E.49185
G1 X115.581 Y82.728 E.0139
G1 X126.375 Y93.523 E.48065
G1 X126.21 Y93.488 E.00531
G1 X125.804 Y93.488 E.01277
G1 X115.152 Y82.836 E.47432
G1 X114.724 Y82.943 E.0139
G1 X125.269 Y93.488 E.46955
G1 X124.733 Y93.488 E.01686
G1 X114.295 Y83.05 E.46478
G1 X113.867 Y83.157 E.0139
G1 X124.198 Y93.488 E.46001
G1 X123.79 Y93.488 E.01284
G1 X123.685 Y93.51 E.00339
G1 X113.439 Y83.264 E.45624
G1 X113.053 Y83.414 E.01302
G1 X123.243 Y93.604 E.45372
G1 X122.801 Y93.698 E.01422
G1 X112.671 Y83.567 E.45109
G1 X112.288 Y83.72 E.01297
G1 X122.36 Y93.792 E.44846
G1 X121.918 Y93.886 E.01422
G1 X111.906 Y83.873 E.44583
G1 X111.523 Y84.026 E.01297
G1 X121.477 Y93.979 E.44319
G1 X121.097 Y94.136 E.01291
G1 X111.141 Y84.179 E.44334
G1 X110.762 Y84.336 E.01291
G1 X120.727 Y94.301 E.44371
G1 X120.356 Y94.466 E.01277
G1 X110.405 Y84.514 E.44311
G1 X110.048 Y84.693 E.01257
G1 X119.986 Y94.631 E.44251
G1 X119.615 Y94.796 E.01277
G1 X109.691 Y84.871 E.4419
