; generated by PrusaSlicer 2.4.1+x64 on 2022-03-19 at 20:23:16 UTC

; 

; external perimeters extrusion width = 0.60mm
; perimeters extrusion width = 0.50mm
; infill extrusion width = 0.50mm
; solid infill extrusion width = 0.50mm
; top infill extrusion width = 0.45mm
; first layer extrusion width = 0.42mm

M73 P0 R39
M73 Q0 S39
M201 X1000 Y1000 Z200 E5000 ; sets maximum accelerations, mm/sec^2
M203 X200 Y200 Z12 E120 ; sets maximum feedrates, mm / sec
M204 P1250 R1250 T1250 ; sets acceleration (P, T) and retract acceleration (R), mm/sec^2
M205 X8.00 Y8.00 Z0.40 E4.50 ; sets the jerk limits, mm/sec
M205 S0 T0 ; sets the minimum extruding and travel feed rate, mm/sec
M107
;TYPE:Custom
M862.3 P "MK3S" ; printer model check
M862.1 P0.4 ; nozzle diameter check
M115 U3.10.1 ; tell printer latest fw version
G90 ; use absolute coordinates
M83 ; extruder relative mode
M104 S215 ; set extruder temp
M140 S60 ; set bed temp
M190 S60 ; wait for bed temp
M109 S215 ; wait for extruder temp
G28 W ; home all without mesh bed level
G80 ; mesh bed leveling
G1 Z0.2 F720
G1 Y-3 F1000 ; go outside print area
G92 E0
G1 X60 E9 F1000 ; intro line
G1 X100 E12.5 F1000 ; intro line
G92 E0
M221 S95

; Don't change E values below. Excessive value can damage the printer.

M907 E538 ; set extruder motor current
G21 ; set units to millimeters
G90 ; use absolute coordinates
M83 ; use relative distances for extrusion
M900 K0.05 ; Filament gcode LA 1.5
M900 K30 ; Filament gcode LA 1.0
M107
;LAYER_CHANGE
;Z:0.2
;HEIGHT:0.2
;BEFORE_LAYER_CHANGE
G92 E0.0
;0.2


G1 E-.8 F2100
M73 P0 R38
G1 Z.4 F720
;AFTER_LAYER_CHANGE
;0.2
G1 X100.605 Y87.095 F10800
G1 Z.2 F720
G1 E.8 F2100
M204 S800
;TYPE:Skirt/Brim
;WIDTH:0.42
G1 F1200
G1 X101.918 Y85.81 E.0576
G1 X103.514 Y84.596 E.06285
G1 X107.172 Y82.323 E.13504
G1 X109.515 Y81.16 E.08203
G1 X112.525 Y79.98 E.10138
G1 X121.179 Y77.816 E.27966
G1 X121.755 Y77.745 E.01821
G1 X128.245 Y77.745 E.20348
G1 X128.821 Y77.816 E.01821
G1 X137.475 Y79.98 E.27966
G1 X140.665 Y81.241 E.10757
G1 X143.025 Y82.433 E.0829
G1 X146.676 Y84.728 E.1352
G1 X148.314 Y86.013 E.06527
G1 X149.395 Y87.095 E.04796
G1 X149.84 Y87.712 E.02388
G1 X151.463 Y90.957 E.11375
G1 X151.66 Y91.517 E.0186
G1 X153.066 Y98.007 E.2082
G1 X153.333 Y102.718 E.14795
G1 X153.336 Y107.163 E.13938
G1 X153.066 Y111.993 E.15167
G1 X151.66 Y118.483 E.2082
G1 X151.463 Y119.043 E.0186
G1 X149.84 Y122.288 E.11375
G1 X149.395 Y122.905 E.02388
G1 X148.082 Y124.19 E.0576
G1 X146.486 Y125.404 E.06285
G1 X142.828 Y127.677 E.13504
G1 X140.485 Y128.84 E.08203
G1 X137.475 Y130.02 E.10138
G1 X128.821 Y132.184 E.27966
G1 X128.245 Y132.255 E.01821
G1 X121.755 Y132.255 E.20348
G1 X121.179 Y132.184 E.01821
G1 X112.525 Y130.02 E.27966
G1 X109.335 Y128.759 E.10757
G1 X106.975 Y127.567 E.0829
G1 X103.324 Y125.272 E.1352
G1 X101.686 Y123.987 E.06527
G1 X100.605 Y122.905 E.04796
G1 X100.16 Y122.288 E.02388
G1 X98.537 Y119.043 E.11375
M73 Q0 S38
G1 X98.34 Y118.483 E.0186
G1 X96.934 Y111.993 E.20821
G1 X96.667 Y107.282 E.14795
G1 X96.664 Y102.837 E.13938
G1 X96.934 Y98.007 E.15167
G1 X98.34 Y91.517 E.2082
G1 X98.537 Y90.957 E.0186
G1 X100.16 Y87.712 E.11375
G1 X100.57 Y87.143 E.022
M204 S1000
; printing object mic-holder.stl id:0 copy 0
;WIPE_START
G1 F8640
G1 X101.918 Y85.81 E-.43786
G1 X103.029 Y84.965 E-.32214
;WIPE_END
G1 E-.04 F2100
G1 Z.6 F720
G1 X115.892 Y98.334 F10800
G1 Z.2 F720
G1 E.8 F2100
M204 S800
;TYPE:Perimeter
G1 F1200
G1 X117.445 Y96.609 E.07277
G1 X119.354 Y95.221 E.07401
G1 X121.511 Y94.261 E.07401
G1 X123.82 Y93.77 E.07401
G1 X126.18 Y93.77 E.07401
G1 X128.489 Y94.261 E.07401
G1 X130.646 Y95.221 E.07401
G1 X132.555 Y96.609 E.07401
G1 X134.135 Y98.363 E.07401
G1 X135.315 Y100.407 E.07401
G1 X136.045 Y102.652 E.07401
G1 X136.291 Y105 E.07401
G1 X136.045 Y107.348 E.07401
G1 X135.315 Y109.593 E.07401
G1 X134.135 Y111.637 E.07401
G1 X132.555 Y113.391 E.07401
G1 X130.646 Y114.779 E.07401
G1 X128.489 Y115.739 E.07401
G1 X126.18 Y116.23 E.07401
G1 X123.82 Y116.23 E.07401
G1 X121.511 Y115.739 E.07401
G1 X119.354 Y114.779 E.07401
G1 X117.445 Y113.391 E.07401
G1 X115.865 Y111.637 E.07401
G1 X114.685 Y109.593 E.07401
G1 X113.955 Y107.348 E.07401
G1 X113.709 Y105 E.07401
G1 X113.955 Y102.652 E.07401
G1 X114.685 Y100.407 E.07401
G1 X115.855 Y98.381 E.07337
M204 S1000
G1 X116.172 Y98.586 F10800
M204 S800
;TYPE:External perimeter
G1 F1200
G1 X117.698 Y96.891 E.07153
G1 X119.544 Y95.55 E.07153
G1 X121.628 Y94.622 E.07153
G1 X123.859 Y94.148 E.07153
G1 X126.141 Y94.148 E.07153
G1 X128.372 Y94.622 E.07153
G1 X130.456 Y95.55 E.07153
G1 X132.302 Y96.891 E.07153
G1 X133.828 Y98.586 E.07153
G1 X134.969 Y100.562 E.07153
G1 X135.674 Y102.731 E.07153
G1 X135.912 Y105 E.07153
G1 X135.674 Y107.269 E.07153
G1 X134.969 Y109.438 E.07153
G1 X133.828 Y111.414 E.07153
G1 X132.302 Y113.109 E.07153
G1 X130.456 Y114.45 E.07153
G1 X128.372 Y115.378 E.07153
G1 X126.141 Y115.852 E.07153
G1 X123.859 Y115.852 E.07153
G1 X121.628 Y115.378 E.07153
G1 X119.544 Y114.45 E.07153
G1 X117.698 Y113.109 E.07153
G1 X116.172 Y111.414 E.07153
G1 X115.031 Y109.438 E.07153
G1 X114.326 Y107.269 E.07153
G1 X114.088 Y105 E.07153
M73 Q1 S38
G1 X114.326 Y102.731 E.07153
G1 X115.031 Y100.562 E.07153
M73 P1 R38
G1 X116.142 Y98.638 E.06965
M204 S1000
G1 X116.009 Y98.221 F10800
;WIPE_START
G1 F8640
G1 X117.698 Y96.891 E-.54032
G1 X118.468 Y96.331 E-.21968
;WIPE_END
G1 E-.04 F2100
G1 Z.6 F720
G1 X102.933 Y89.242 F10800
G1 Z.2 F720
G1 E.8 F2100
M204 S800
;TYPE:Perimeter
G1 F1200
G1 X103.888 Y88.287 E.04235
G1 X105.215 Y87.266 E.05249
G1 X107.03 Y86.198 E.06605
G1 X108.631 Y85.131 E.0603
G1 X110.721 Y84.086 E.07327
G1 X113.345 Y83.036 E.08861
G1 X121.852 Y80.909 E.27495
G1 X128.151 Y80.91 E.19749
G1 X136.655 Y83.036 E.27486
G1 X139.279 Y84.086 E.08861
G1 X141.369 Y85.131 E.07327
G1 X142.97 Y86.198 E.0603
G1 X144.785 Y87.266 E.06605
G1 X146.112 Y88.287 E.05249
G1 X147.067 Y89.242 E.04235
G1 X148.588 Y92.284 E.10664
G1 X149.96 Y98.614 E.20308
G1 X150.172 Y102.856 E.13319
G1 X150.172 Y107.144 E.13442
G1 X149.96 Y111.386 E.13319
G1 X148.588 Y117.716 E.20308
G1 X147.067 Y120.758 E.10664
G1 X146.112 Y121.713 E.04235
G1 X144.785 Y122.734 E.05249
G1 X142.97 Y123.802 E.06605
G1 X141.369 Y124.869 E.0603
G1 X139.279 Y125.914 E.07327
G1 X136.655 Y126.964 E.08861
G1 X128.148 Y129.091 E.27495
G1 X121.852 Y129.091 E.19741
G1 X113.345 Y126.964 E.27495
G1 X110.721 Y125.914 E.08861
G1 X108.631 Y124.869 E.07327
G1 X107.03 Y123.802 E.0603
G1 X105.215 Y122.734 E.06605
G1 X103.888 Y121.713 E.05249
G1 X102.933 Y120.758 E.04235
G1 X101.412 Y117.716 E.10664
G1 X100.04 Y111.386 E.20308
G1 X99.828 Y107.144 E.13319
G1 X99.828 Y102.856 E.13442
G1 X100.04 Y98.614 E.13319
G1 X101.412 Y92.284 E.20308
G1 X102.906 Y89.295 E.10476
M204 S1000
G1 X102.623 Y89.018 F10800
M204 S800
;TYPE:External perimeter
G1 F1200
G1 X103.638 Y88.003 E.04504
G1 X105.003 Y86.953 E.05399
G1 X106.83 Y85.878 E.06645
G1 X108.441 Y84.804 E.0607
G1 X110.566 Y83.742 E.0745
G1 X113.228 Y82.677 E.08991
G1 X121.806 Y80.532 E.27721
G1 X128.197 Y80.533 E.20041
G1 X136.772 Y82.677 E.27712
G1 X139.434 Y83.742 E.08991
G1 X141.559 Y84.804 E.0745
G1 X143.17 Y85.878 E.0607
G1 X144.997 Y86.953 E.06645
G1 X146.362 Y88.003 E.05399
G1 X147.377 Y89.018 E.04504
G1 X148.947 Y92.158 E.11005
G1 X150.335 Y98.564 E.20554
G1 X150.549 Y102.847 E.13445
G1 X150.549 Y107.153 E.13501
G1 X150.335 Y111.436 E.13445
G1 X148.947 Y117.842 E.20554
G1 X147.377 Y120.982 E.11005
G1 X146.362 Y121.997 E.04504
G1 X144.997 Y123.047 E.05399
G1 X143.17 Y124.122 E.06645
G1 X141.559 Y125.196 E.0607
G1 X139.434 Y126.258 E.0745
G1 X136.772 Y127.323 E.08991
G1 X128.194 Y129.468 E.27721
G1 X121.806 Y129.468 E.20032
G1 X113.228 Y127.323 E.27721
G1 X110.566 Y126.258 E.08991
G1 X108.441 Y125.196 E.0745
G1 X106.83 Y124.122 E.0607
G1 X105.003 Y123.047 E.06645
G1 X103.638 Y121.997 E.05399
G1 X102.623 Y120.982 E.04504
G1 X101.053 Y117.842 E.11005
G1 X99.665 Y111.436 E.20554
G1 X99.451 Y107.153 E.13445
G1 X99.451 Y102.847 E.13501
G1 X99.665 Y98.564 E.13445
G1 X101.053 Y92.158 E.20554
G1 X102.596 Y89.072 E.10817
M204 S1000
G1 X103.021 Y89.058 F10800
;WIPE_START
G1 F8640
G1 X103.638 Y88.003 E-.34485
G1 X105.003 Y86.953 E-.39763
G1 X105.069 Y86.914 E-.01752
;WIPE_END
G1 E-.04 F2100
G1 Z.6 F720
G1 X144.994 Y87.569 F10800
G1 Z.2 F720
G1 E.8 F2100
M204 S800
;TYPE:Solid infill
;WIDTH:0.42097
G1 F1200
G1 X146.836 Y89.411 E.08186
G1 X147.37 Y90.48 E.03758
G1 X144.054 Y87.164 E.14742
G1 X142.741 Y86.385 E.048
G1 X147.905 Y91.549 E.22957
G1 X148.32 Y92.378 E.02914
G1 X148.353 Y92.532 E.00493
G1 X141.167 Y85.346 E.31944
G1 X140.098 Y84.811 E.03758
G1 X148.501 Y93.214 E.37355
G1 X148.649 Y93.897 E.02195
G1 X139.051 Y84.299 E.42667
G1 X138.16 Y83.943 E.03017
G1 X148.796 Y94.579 E.47285
G1 X148.944 Y95.262 E.02195
G1 X137.269 Y83.586 E.51904
G1 X136.568 Y83.306 E.02373
G1 X136.416 Y83.268 E.00493
G1 X149.092 Y95.944 E.56354
G1 X149.24 Y96.627 E.02195
M73 Q2 S38
G1 X135.703 Y83.09 E.6018
G1 X134.99 Y82.912 E.0231
M73 P2 R38
G1 X149.388 Y97.309 E.64007
G1 X149.536 Y97.992 E.02195
G1 X134.277 Y82.733 E.67833
G1 X133.564 Y82.555 E.0231
G1 X149.68 Y98.67 E.71641
G1 X149.708 Y99.233 E.01771
G1 X132.852 Y82.377 E.74936
G1 X132.139 Y82.199 E.0231
G1 X149.736 Y99.796 E.7823
G1 X149.764 Y100.359 E.01771
G1 X131.426 Y82.02 E.81524
G1 X130.713 Y81.842 E.0231
G1 X149.792 Y100.921 E.84818
G1 X149.82 Y101.484 E.01771
G1 X130 Y81.664 E.88113
G1 X129.287 Y81.486 E.0231
G1 X149.848 Y102.047 E.91407
G1 X149.877 Y102.61 E.01771
G1 X128.574 Y81.308 E.94701
G1 X128.116 Y81.193 E.01485
G1 X127.925 Y81.193 E.006
G1 X149.889 Y103.157 E.97644
G1 X149.889 Y103.692 E.01681
G1 X127.39 Y81.193 E1.00021
G1 X126.856 Y81.193 E.01681
G1 X149.889 Y104.226 E1.02398
G1 X149.889 Y104.761 E.01681
M73 P2 R37
G1 X126.321 Y81.193 E1.04775
G1 X125.786 Y81.193 E.01681
G1 X149.889 Y105.296 E1.07152
G1 X149.889 Y105.83 E.01681
G1 X125.252 Y81.193 E1.09529
G1 X124.717 Y81.193 E.01681
M73 P3 R37
M73 Q3 S38
G1 X149.889 Y106.365 E1.11906
G1 X149.889 Y106.9 E.01681
G1 X124.182 Y81.193 E1.14283
G1 X123.647 Y81.192 E.01681
M73 Q3 S37
G1 X149.875 Y107.42 E1.16597
G1 X149.85 Y107.929 E.01603
G1 X123.113 Y81.192 E1.18861
G1 X122.578 Y81.192 E.01681
G1 X149.824 Y108.438 E1.21125
G1 X149.799 Y108.948 E.01603
G1 X122.043 Y81.192 E1.23389
G1 X121.887 Y81.192 E.00492
G1 X121.584 Y81.268 E.0098
G1 X149.773 Y109.457 E1.25316
G1 X149.748 Y109.966 E.01603
G1 X121.157 Y81.375 E1.27104
G1 X120.729 Y81.482 E.01386
G1 X149.722 Y110.475 E1.28893
G1 X149.697 Y110.984 E.01603
G1 X120.301 Y81.589 E1.30681
G1 X119.873 Y81.696 E.01386
G1 X149.652 Y111.474 E1.32381
G1 X149.556 Y111.913 E.01413
G1 X119.446 Y81.803 E1.33859
G1 X119.018 Y81.909 E.01386
M73 P4 R37
M73 Q4 S37
G1 X149.461 Y112.353 E1.35337
G1 X149.366 Y112.792 E.01413
G1 X118.59 Y82.016 E1.36815
G1 X118.163 Y82.123 E.01386
G1 X131.616 Y95.577 E.59808
G1 X132.746 Y96.398 E.04389
G1 X134.365 Y98.196 E.07607
G1 X134.542 Y98.503 E.01115
G1 X149.271 Y113.231 E.65476
G1 X149.176 Y113.671 E.01413
G1 X135.273 Y99.768 E.61806
G1 X135.575 Y100.292 E.01901
G1 X135.726 Y100.756 E.01534
G1 X149.08 Y114.11 E.59369
G1 X148.985 Y114.55 E.01413
G1 X135.983 Y101.548 E.57802
G1 X136.24 Y102.34 E.02618
G1 X148.89 Y114.989 E.56235
G1 X148.795 Y115.429 E.01413
G1 X136.365 Y102.999 E.55255
G1 X136.428 Y103.597 E.01888
G1 X148.699 Y115.868 E.54553
G1 X148.604 Y116.308 E.01413
G1 X136.491 Y104.194 E.5385
G1 X136.554 Y104.792 E.01888
G1 X148.509 Y116.747 E.53148
G1 X148.414 Y117.186 E.01413
G1 X136.543 Y105.315 E.52774
G1 X136.492 Y105.799 E.01529
G1 X148.318 Y117.625 E.52574
G1 X148.14 Y117.981 E.01253
G1 X136.441 Y106.283 E.52008
G1 X136.39 Y106.767 E.01529
G1 X147.961 Y118.338 E.51441
G1 X147.783 Y118.694 E.01253
G1 X136.339 Y107.25 E.50875
G1 X136.323 Y107.407 E.00494
G1 X136.234 Y107.68 E.00903
G1 X147.605 Y119.051 E.5055
G1 X147.427 Y119.407 E.01253
G1 X136.103 Y108.083 E.50341
G1 X135.972 Y108.487 E.01334
G1 X147.249 Y119.764 E.50132
G1 X147.07 Y120.12 E.01253
G1 X135.841 Y108.89 E.49922
G1 X135.71 Y109.294 E.01334
G1 X146.892 Y120.476 E.49713
G1 X146.835 Y120.591 E.00402
M73 P5 R37
M73 Q5 S37
G1 X146.653 Y120.772 E.00807
G1 X135.579 Y109.697 E.49234
G1 X135.385 Y110.038 E.01232
G1 X146.386 Y121.04 E.48908
G1 X146.119 Y121.307 E.01188
G1 X135.189 Y110.377 E.4859
G1 X134.993 Y110.716 E.0123
G1 X145.842 Y121.565 E.48228
G1 X145.54 Y121.797 E.01198
G1 X134.797 Y111.055 E.47755
G1 X134.602 Y111.394 E.0123
G1 X145.237 Y122.03 E.47282
G1 X144.935 Y122.262 E.01198
G1 X134.406 Y111.733 E.46808
G1 X134.365 Y111.804 E.00258
G1 X134.165 Y112.026 E.0094
G1 X144.633 Y122.495 E.46537
G1 X144.297 Y122.693 E.01227
G1 X133.912 Y112.308 E.4617
G1 X133.658 Y112.589 E.0119
M73 P5 R36
G1 X143.961 Y122.891 E.458
G1 X143.624 Y123.089 E.01228
G1 X133.405 Y112.87 E.45429
G1 X133.152 Y113.152 E.0119
G1 X143.287 Y123.287 E.45059
G1 X142.951 Y123.485 E.01228
G1 X132.898 Y113.433 E.44688
G1 X132.746 Y113.602 E.00717
G1 X132.623 Y113.692 E.00478
G1 X142.624 Y123.693 E.44461
G1 X142.303 Y123.907 E.01212
G1 X132.313 Y113.917 E.44411
G1 X132.003 Y114.142 E.01203
G1 X141.982 Y124.121 E.44362
G1 X141.661 Y124.335 E.01212
G1 X131.694 Y114.367 E.44312
G1 X131.384 Y114.592 E.01203
G1 X141.34 Y124.548 E.44263
G1 X141.227 Y124.624 E.00428
G1 X140.997 Y124.739 E.00811
G1 X131.074 Y114.817 E.44111
G1 X130.76 Y115.037 E.01207
G1 X140.64 Y124.917 E.43923
G1 X140.284 Y125.096 E.01253
G1 X130.39 Y115.202 E.43983
G1 X130.02 Y115.367 E.01273
G1 X139.927 Y125.274 E.44043
G1 X139.571 Y125.452 E.01253
M73 Q5 S36
G1 X129.65 Y115.531 E.44103
G1 X129.28 Y115.696 E.01273
G1 X139.215 Y125.63 E.44163
G1 X138.836 Y125.787 E.01287
G1 X128.91 Y115.861 E.44126
G1 X128.533 Y116.018 E.01284
G1 X138.454 Y125.939 E.44104
G1 X138.073 Y126.092 E.01293
G1 X128.093 Y116.112 E.44367
G1 X127.652 Y116.206 E.01417
G1 X137.691 Y126.245 E.44629
G1 X137.309 Y126.398 E.01293
G1 X127.211 Y116.3 E.44892
G1 X126.77 Y116.393 E.01417
G1 X136.927 Y126.55 E.45154
G1 X136.542 Y126.7 E.01298
G1 X126.329 Y116.487 E.45404
G1 X126.21 Y116.512 E.00382
M73 P6 R36
M73 Q6 S36
G1 X125.819 Y116.512 E.01228
G1 X136.114 Y126.807 E.45767
G1 X135.687 Y126.914 E.01386
G1 X125.285 Y116.512 E.46243
G1 X124.75 Y116.512 E.01681
G1 X135.259 Y127.021 E.46718
G1 X134.831 Y127.128 E.01386
G1 X124.216 Y116.512 E.47193
G1 X123.79 Y116.512 E.01338
G1 X123.651 Y116.483 E.00445
G1 X134.404 Y127.235 E.478
G1 X133.976 Y127.342 E.01386
G1 X122.972 Y116.339 E.48917
G1 X122.294 Y116.194 E.02182
G1 X133.548 Y127.449 E.50034
G1 X133.12 Y127.556 E.01386
G1 X121.615 Y116.05 E.51151
G1 X121.423 Y116.009 E.00616
G1 X120.731 Y115.701 E.0238
G1 X132.693 Y127.663 E.53176
G1 X132.265 Y127.77 E.01386
G1 X119.433 Y114.937 E.57047
M204 S1000
;WIPE_START
G1 F8640
G1 X121.76 Y117.265 E-.76
;WIPE_END
G1 E-.04 F2100
G1 Z.6 F720
G1 X130.567 Y95.063 F10800
G1 Z.2 F720
G1 E.8 F2100
M204 S800
G1 F1200
G1 X117.735 Y82.23 E.57047
G1 X117.307 Y82.337 E.01386
G1 X129.269 Y94.299 E.53176
G1 X128.577 Y93.991 E.0238
G1 X128.385 Y93.95 E.00616
G1 X116.879 Y82.444 E.5115
G1 X116.452 Y82.551 E.01386
G1 X127.706 Y93.806 E.50033
G1 X127.027 Y93.661 E.02182
G1 X116.024 Y82.658 E.48916
G1 X115.596 Y82.765 E.01386
G1 X126.348 Y93.517 E.47799
G1 X126.21 Y93.488 E.00445
G1 X125.784 Y93.488 E.01338
G1 X115.169 Y82.872 E.47193
G1 X114.741 Y82.979 E.01386
G1 X125.25 Y93.488 E.46718
G1 X124.715 Y93.488 E.01681
G1 X114.313 Y83.086 E.46243
G1 X113.885 Y83.193 E.01386
G1 X124.18 Y93.488 E.45767
G1 X123.79 Y93.488 E.01227
G1 X123.671 Y93.513 E.00382
G1 X113.458 Y83.3 E.45404
G1 X113.073 Y83.45 E.01298
G1 X123.23 Y93.607 E.45154
G1 X122.789 Y93.7 E.01417
G1 X112.691 Y83.602 E.44892
G1 X112.309 Y83.755 E.01293
G1 X122.348 Y93.794 E.44629
G1 X121.907 Y93.888 E.01417
G1 X111.927 Y83.908 E.44367
G1 X111.546 Y84.061 E.01293
G1 X121.466 Y93.982 E.44104
G1 X121.09 Y94.139 E.01284
G1 X111.164 Y84.213 E.44126
G1 X110.785 Y84.37 E.01287
G1 X120.72 Y94.304 E.44163
G1 X120.35 Y94.469 E.01273
M73 P7 R36
G1 X110.429 Y84.548 E.44103
G1 X110.073 Y84.726 E.01253
M73 Q7 S36
G1 X119.98 Y94.633 E.44043
G1 X119.61 Y94.798 E.01273
G1 X109.716 Y84.904 E.43983
